;FLAVOR:UltiGCode
;TIME:994
;MATERIAL:2018
;MATERIAL2:0
;NOZZLE_DIAMETER:0.4
;MINX:83.565
;MINY:69.946
;MINZ:0.27
;MAXX:139.436
;MAXY:153.054
;MAXZ:8.47
;Generated with Cura_SteamEngine 4.8.0
M82 ;absolute extrusion mode
G0 F3000 Y50 ;avoid prime blob
G92 E0
G92 E0
G10
;LAYER_COUNT:42
;LAYER:0
M107
;MESH:bestandteile-cut-komplett.stl
G0 F4500 X93.477 Y133.978 Z0.27
;TYPE:WALL-INNER
G11
G1 F1800 X93.318 Y133.911 E0.01631
G1 X93.094 Y133.816 E0.0393
G1 X93.147 Y133.397 E0.07921
G1 X93.196 Y133.201 E0.0983
G1 X93.267 Y132.91 E0.12661
G1 X93.41 Y132.515 E0.16631
G1 X93.479 Y132.867 E0.17565
G1 X93.537 Y133.161 E0.19867
G1 X93.563 Y133.287 E0.21083
G1 X93.597 Y133.764 E0.25602
G1 X93.608 Y133.936 E0.26808
G1 X93.61 Y133.969 E0.27121
G1 X93.825 Y137.351 E0.59145
G1 X94.483 Y147.638 E1.56556
G1 X94.484 Y147.639 E1.56569
G1 X94.494 Y147.824 E1.5832
G1 X94.309 Y147.824 E1.59435
G1 X94.307 Y147.824 E1.59454
G1 X93.473 Y147.82 E1.67335
G1 X93.477 Y137.367 E2.66116
G1 X93.477 Y133.978 E2.8822
G0 F4500 X93.152 Y134.202
;TYPE:WALL-OUTER
G1 F1800 X92.871 Y134.095 E2.91062
G1 X92.788 Y133.979 E2.9241
G1 X92.766 Y133.819 E2.93936
G1 X92.828 Y133.33 E2.98594
G1 X92.953 Y132.823 E3.03528
G1 X93.164 Y132.243 E3.09361
G1 X93.321 Y132.02 E3.11938
G1 X93.359 Y131.966 E3.12562
G1 X93.42 Y131.941 E3.13185
G1 X93.49 Y131.97 E3.13901
G1 X93.597 Y132.108 E3.15551
G1 X93.622 Y132.17 E3.16125
G1 X93.723 Y132.42 E3.18673
G1 X93.885 Y133.241 E3.26581
G1 X93.932 Y133.915 E3.32966
G1 X94.829 Y147.964 E4.65999
G1 X94.83 Y147.965 E4.66013
G1 X94.84 Y148.15 E4.67763
G1 X94.655 Y148.15 E4.68879
G1 X94.653 Y148.15 E4.68897
G1 X93.148 Y148.145 E4.8312
G1 X93.083 Y148.144 E4.83734
G1 X93.148 Y147.885 E4.85402
G1 X93.152 Y134.202 E6.14706
G0 F4500 X92.965 Y134.131
G0 X93.068 Y133.887
G0 X93.814 Y142.525
;TYPE:SKIN
G1 F1800 X94.131 Y147.482 E6.61646
G1 X93.813 Y147.481 E6.64651
G1 X93.814 Y142.525 E7.11485
G0 F4500 X93.842 Y142.35
;TYPE:SKIN
G1 F1800 X93.631 Y142.139 E7.12895
G0 F4500 X93.631 Y141.891
G1 F1800 X93.98 Y142.24 E7.15227
G0 F4500 X93.963 Y141.976
G1 F1800 X93.631 Y141.644 E7.17446
G0 F4500 X93.631 Y141.396
G1 F1800 X93.946 Y141.711 E7.1955
G0 F4500 X93.929 Y141.447
G1 F1800 X93.631 Y141.149 E7.21542
G0 F4500 X93.631 Y140.901
G1 F1800 X93.912 Y141.183 E7.23423
G0 F4500 X93.896 Y140.918
G1 F1800 X93.631 Y140.654 E7.2519
G0 F4500 X93.631 Y140.406
G1 F1800 X93.879 Y140.654 E7.26847
G0 F4500 X93.862 Y140.39
G1 F1800 X93.631 Y140.159 E7.28391
G0 F4500 X93.845 Y140.125
G1 F1800 X93.631 Y139.911 E7.29821
G0 F4500 X93.828 Y139.861
G1 F1800 X93.632 Y139.664 E7.31134
G0 F4500 X93.811 Y139.597
G1 F1800 X93.632 Y139.417 E7.32333
G0 F4500 X93.794 Y139.332
G1 F1800 X93.632 Y139.169 E7.33419
G0 F4500 X93.777 Y139.068
G1 F1800 X93.632 Y138.922 E7.34392
G0 F4500 X93.76 Y138.803
G1 F1800 X93.632 Y138.674 E7.3525
G0 F4500 X93.743 Y138.539
G1 F1800 X93.632 Y138.427 E7.35995
G0 F4500 X93.727 Y138.274
G1 F1800 X93.632 Y138.179 E7.3663
G0 F4500 X93.71 Y138.01
G1 F1800 X93.632 Y137.932 E7.37151
G0 F4500 X93.693 Y137.746
G1 F1800 X93.632 Y137.685 E7.37559
G0 F4500 X93.676 Y137.482
G1 F1800 X93.632 Y137.437 E7.37856
G0 F4500 X93.651 Y137.437
G10
G0 X93.84 Y134.848
G0 X92.28 Y134.848
G0 X97.211 Y134.684
G0 X97.968 Y144.263
G0 X98.891 Y142.355
G0 X99.918 Y134.595
G0 X106.056 Y134.395
G0 X106.921 Y133.917
G0 X107.477 Y133.978
;TYPE:WALL-INNER
G11
G1 F1800 X107.318 Y133.911 E7.39487
G1 X107.094 Y133.816 E7.41786
G1 X107.147 Y133.397 E7.45777
G1 X107.196 Y133.201 E7.47686
G1 X107.267 Y132.91 E7.50517
G1 X107.41 Y132.515 E7.54487
G1 X107.479 Y132.867 E7.55422
G1 X107.537 Y133.161 E7.57723
G1 X107.563 Y133.287 E7.58939
G1 X107.597 Y133.764 E7.63458
G1 X107.608 Y133.936 E7.64665
G1 X107.61 Y133.969 E7.64977
G1 X108.496 Y147.816 E8.96099
G1 X107.473 Y147.818 E9.05766
G1 X107.477 Y133.978 E10.36554
G0 F4500 X107.152 Y134.202
;TYPE:WALL-OUTER
G1 F1800 X106.871 Y134.095 E10.39396
G1 X106.788 Y133.979 E10.40743
G1 X106.766 Y133.819 E10.4227
G1 X106.828 Y133.33 E10.46928
G1 X106.953 Y132.823 E10.51862
G1 X107.164 Y132.243 E10.57695
G1 X107.321 Y132.02 E10.60272
G1 X107.359 Y131.966 E10.60896
G1 X107.42 Y131.941 E10.61519
G1 X107.49 Y131.97 E10.62235
G1 X107.597 Y132.108 E10.63885
G1 X107.622 Y132.17 E10.64459
G1 X107.723 Y132.42 E10.67007
G1 X107.885 Y133.241 E10.74915
G1 X107.932 Y133.915 E10.813
G1 X108.831 Y147.956 E12.14259
G1 X108.842 Y148.141 E12.1601
G1 X108.657 Y148.141 E12.17123
G1 X108.656 Y148.141 E12.17133
G1 X107.195 Y148.142 E12.30939
G1 X107.149 Y148.142 E12.31374
G1 X107.083 Y148.143 E12.31997
G1 X107.148 Y147.885 E12.33644
G1 X107.148 Y147.839 E12.34079
G1 X107.152 Y134.202 E13.62949
G0 F4500 X106.965 Y134.131
G0 X107.068 Y133.887
G0 X107.814 Y142.501
;TYPE:SKIN
G1 F1800 X108.133 Y147.477 E14.10068
G1 X107.813 Y147.478 E14.13093
G1 X107.814 Y142.501 E14.60125
G0 F4500 X107.923 Y142.324
;TYPE:SKIN
G1 F1800 X107.632 Y142.033 E14.6207
G0 F4500 X107.632 Y142.28
G1 F1800 X107.683 Y142.332 E14.62414
G0 F4500 X107.974 Y142.127
G1 F1800 X107.632 Y141.785 E14.64699
G0 F4500 X107.632 Y141.538
G1 F1800 X107.957 Y141.863 E14.66871
G0 F4500 X107.94 Y141.598
G1 F1800 X107.632 Y141.29 E14.68929
G0 F4500 X107.632 Y141.043
G1 F1800 X107.923 Y141.334 E14.70873
G0 F4500 X107.906 Y141.069
G1 F1800 X107.632 Y140.795 E14.72704
G0 F4500 X107.632 Y140.548
G1 F1800 X107.889 Y140.805 E14.74422
G0 F4500 X107.872 Y140.541
G1 F1800 X107.632 Y140.3 E14.76029
G0 F4500 X107.856 Y140.277
G1 F1800 X107.632 Y140.053 E14.77526
G0 F4500 X107.839 Y140.012
G1 F1800 X107.632 Y139.805 E14.78909
G0 F4500 X107.822 Y139.748
G1 F1800 X107.632 Y139.558 E14.80178
G0 F4500 X107.805 Y139.483
G1 F1800 X107.632 Y139.31 E14.81334
G0 F4500 X107.788 Y139.219
G1 F1800 X107.632 Y139.063 E14.82377
G0 F4500 X107.771 Y138.954
G1 F1800 X107.632 Y138.815 E14.83306
G0 F4500 X107.754 Y138.69
G1 F1800 X107.632 Y138.568 E14.84121
G0 F4500 X107.737 Y138.426
G1 F1800 X107.632 Y138.32 E14.84826
G0 F4500 X107.72 Y138.161
G1 F1800 X107.632 Y138.073 E14.85414
G0 F4500 X107.703 Y137.897
G1 F1800 X107.632 Y137.825 E14.85892
G0 F4500 X107.686 Y137.632
G1 F1800 X107.632 Y137.578 E14.86252
G0 F4500 X107.67 Y137.368
G1 F1800 X107.638 Y137.337 E14.86463
G0 F4500 X107.649 Y137.336
G10
G0 X107.841 Y134.85
G0 X106.28 Y134.85
G0 X111.211 Y134.686
G0 X111.968 Y144.263
G0 X112.891 Y142.355
G0 X113.918 Y134.596
G0 X120.056 Y134.395
G0 X120.921 Y133.917
G0 X121.477 Y133.978
;TYPE:WALL-INNER
G11
G1 F1800 X121.318 Y133.911 E14.88093
G1 X121.094 Y133.816 E14.90393
G1 X121.147 Y133.397 E14.94384
G1 X121.196 Y133.201 E14.96293
G1 X121.267 Y132.91 E14.99124
G1 X121.41 Y132.515 E15.03094
G1 X121.479 Y132.867 E15.04028
G1 X121.537 Y133.161 E15.0633
G1 X121.563 Y133.287 E15.07546
G1 X121.597 Y133.764 E15.12065
G1 X121.608 Y133.936 E15.13271
G1 X121.61 Y133.969 E15.13584
G1 X121.825 Y137.351 E15.45608
G1 X122.483 Y147.638 E16.43019
G1 X122.484 Y147.639 E16.43032
G1 X122.494 Y147.824 E16.44783
G1 X122.309 Y147.824 E16.45898
G1 X122.307 Y147.824 E16.45917
G1 X121.473 Y147.82 E16.53798
G1 X121.477 Y137.367 E17.52579
G1 X121.477 Y133.978 E17.74683
G0 F4500 X121.152 Y134.202
;TYPE:WALL-OUTER
G1 F1800 X120.871 Y134.095 E17.77525
G1 X120.788 Y133.979 E17.78872
G1 X120.766 Y133.819 E17.80399
G1 X120.828 Y133.33 E17.85057
G1 X120.953 Y132.823 E17.89991
G1 X121.164 Y132.243 E17.95824
G1 X121.321 Y132.02 E17.98401
G1 X121.359 Y131.966 E17.99025
G1 X121.42 Y131.941 E17.99648
G1 X121.49 Y131.97 E18.00364
G1 X121.597 Y132.108 E18.02014
G1 X121.622 Y132.17 E18.02588
G1 X121.723 Y132.42 E18.05136
G1 X121.885 Y133.241 E18.13044
G1 X121.932 Y133.915 E18.19429
G1 X122.829 Y147.964 E19.52462
G1 X122.83 Y147.965 E19.52476
G1 X122.84 Y148.15 E19.54226
G1 X122.655 Y148.15 E19.55342
G1 X122.653 Y148.15 E19.5536
G1 X121.148 Y148.145 E19.69583
G1 X121.083 Y148.144 E19.70197
G1 X121.148 Y147.885 E19.71865
G1 X121.152 Y134.202 E21.01169
G0 F4500 X120.965 Y134.131
G0 X121.068 Y133.887
G0 X121.814 Y142.525
;TYPE:SKIN
G1 F1800 X122.131 Y147.482 E21.48109
G1 X121.813 Y147.481 E21.51114
G1 X121.814 Y142.525 E21.97948
G0 F4500 X121.81 Y142.351
;TYPE:SKIN
G1 F1800 X121.631 Y142.173 E21.99141
G0 F4500 X121.631 Y141.925
G1 F1800 X121.982 Y142.276 E22.01486
G0 F4500 X121.966 Y142.012
G1 F1800 X121.631 Y141.678 E22.03721
G0 F4500 X121.631 Y141.43
G1 F1800 X121.949 Y141.748 E22.05846
G0 F4500 X121.932 Y141.484
G1 F1800 X121.631 Y141.183 E22.07858
G0 F4500 X121.631 Y140.935
G1 F1800 X121.915 Y141.219 E22.09755
G0 F4500 X121.898 Y140.955
G1 F1800 X121.631 Y140.688 E22.1154
G0 F4500 X121.631 Y140.44
G1 F1800 X121.881 Y140.69 E22.1321
G0 F4500 X121.864 Y140.426
G1 F1800 X121.631 Y140.193 E22.14767
G0 F4500 X121.847 Y140.161
G1 F1800 X121.631 Y139.945 E22.1621
G0 F4500 X121.83 Y139.897
G1 F1800 X121.632 Y139.698 E22.17537
G0 F4500 X121.813 Y139.633
G1 F1800 X121.632 Y139.451 E22.1875
G0 F4500 X121.797 Y139.368
G1 F1800 X121.632 Y139.203 E22.19852
G0 F4500 X121.78 Y139.104
G1 F1800 X121.632 Y138.956 E22.20841
G0 F4500 X121.763 Y138.84
G1 F1800 X121.632 Y138.708 E22.2172
G0 F4500 X121.746 Y138.575
G1 F1800 X121.632 Y138.461 E22.22482
G0 F4500 X121.729 Y138.311
G1 F1800 X121.632 Y138.213 E22.23133
G0 F4500 X121.712 Y138.047
G1 F1800 X121.632 Y137.966 E22.23671
G0 F4500 X121.695 Y137.782
G1 F1800 X121.632 Y137.718 E22.24095
G0 F4500 X121.678 Y137.518
G1 F1800 X121.632 Y137.471 E22.24406
G0 F4500 X121.651 Y137.471
G10
G0 X121.318 Y134.083
G0 X119.199 Y133.966
G0 X118.636 Y133.938
;TYPE:WALL-INNER
G11
G1 F1800 X118.636 Y137.345 E22.56602
G1 X118.64 Y147.941 E23.56735
G1 X118.779 Y148.474 E23.6194
G1 X119.126 Y148.799 E23.66433
G1 X119.344 Y148.868 E23.68593
G1 X122.529 Y148.875 E23.98692
G1 X122.529 Y150.826 E24.17129
G1 X113.579 Y150.826 E25.01706
G1 X113.579 Y148.876 E25.20134
G1 X116.634 Y148.876 E25.49004
G1 X117.103 Y148.762 E25.53565
G1 X117.469 Y148.389 E25.58503
G1 X117.612 Y147.88 E25.63499
G1 X118.288 Y137.336 E26.63345
G1 X118.505 Y133.936 E26.8547
G1 X118.515 Y133.784 E26.8691
G1 X118.547 Y133.311 E26.9139
G1 X118.577 Y133.167 E26.9278
G1 X118.638 Y132.874 E26.95608
G1 X118.711 Y132.523 E26.98996
G1 X118.848 Y132.917 E27.00487
G1 X118.919 Y133.208 E27.0278
G1 X118.972 Y133.425 E27.04891
G1 X119.011 Y133.836 E27.08793
G1 X118.783 Y133.898 E27.11025
G1 X118.636 Y133.938 E27.12098
G0 F4500 X118.776 Y147.923
G0 X119.194 Y148.677
G0 X122.676 Y149.731
G0 X124.236 Y149.731
G0 X125.711 Y147.066
G0 X128.138 Y147.205
G0 X128.13 Y148.729
G0 X130.617 Y148.74
G0 X131.461 Y147.906
G0 X132.636 Y133.938
G1 F1800 X132.636 Y137.346 E27.44303
G1 X132.64 Y147.813 E28.43216
G1 X131.803 Y147.818 E28.51126
G1 X131.802 Y147.819 E28.5114
G1 X131.616 Y147.819 E28.52897
G1 X131.627 Y147.633 E28.54019
G1 X132.288 Y137.337 E29.51517
G1 X132.505 Y133.936 E29.73649
G1 X132.515 Y133.784 E29.75088
G1 X132.547 Y133.311 E29.79568
G1 X132.577 Y133.167 E29.80958
G1 X132.638 Y132.874 E29.83787
G1 X132.711 Y132.523 E29.87175
G1 X132.848 Y132.917 E29.88665
G1 X132.919 Y133.208 E29.90959
G1 X132.972 Y133.425 E29.9307
G1 X133.011 Y133.836 E29.96971
G1 X132.783 Y133.898 E29.99204
G1 X132.636 Y133.938 E30.00276
G0 F4500 X131.461 Y147.906
G0 X131.171 Y148.86
G1 F1800 X132.154 Y148.876 E30.09567
G1 X136.529 Y148.876 E30.5091
G1 X136.529 Y150.826 E30.69338
G1 X127.579 Y150.826 E31.53915
G1 X127.579 Y148.876 E31.72343
G1 X130.634 Y148.876 E32.01213
G1 X131.103 Y148.762 E32.05774
G1 X131.172 Y148.692 E32.06703
G1 X131.172 Y148.762
G1 X131.171 Y148.86 E32.07463
G0 F4500 X131.607 Y150.973
G0 X131.607 Y152.33
G0 X126.084 Y152.477
G1 F1800 X138.383 Y152.477 E33.23689
G1 X138.383 Y148.217 E33.63946
G1 X137.331 Y130.416 E35.32459
G1 X130.86 Y130.416 E35.9361
G1 X129.744 Y147.058 E37.5123
G1 X126.217 Y147.058 E37.8456
G1 X126.085 Y147.058 E37.85807
G1 X126.085 Y147.229 E37.87423
G1 X126.084 Y152.477 E38.37017
G0 F4500 X125.006 Y147.074
G1 F1800 X125.791 Y147.229 E38.44578
G1 X125.918 Y146.975 E38.46602
G1 X125.977 Y146.857 E38.47599
G1 X128.052 Y142.705 E38.91462
G1 X129.675 Y129.462 E40.17545
G1 X133.702 Y129.5 E40.55602
G1 X137.712 Y129.5 E40.93496
G1 X139.111 Y148.489 E42.73429
G1 X139.069 Y152.729 E43.13499
G1 X138.383 Y152.729 E43.19981
G1 X126.084 Y152.729 E44.03664
G1 X124.383 Y152.729 E44.19738
G1 X112.084 Y152.729 E45.35964
G1 X110.383 Y152.729 E45.52038
G1 X98.084 Y152.729 E46.68264
G1 X96.383 Y152.729 E46.84338
G1 X84.084 Y152.729 E48.00564
G1 X83.892 Y152.729 E48.02378
G1 X83.893 Y152.476 E48.03947
G1 X83.934 Y147.057 E48.55158
G1 X83.935 Y146.94 E48.56264
G1 X83.992 Y146.825 E48.57477
G1 X86.052 Y142.705 E49.01006
G1 X87.675 Y129.462 E50.27089
G1 X91.702 Y129.5 E50.65146
G1 X95.712 Y129.5 E51.0304
G1 X97.006 Y147.074 E52.69564
G1 X97.791 Y147.229 E52.77125
G1 X97.918 Y146.975 E52.79809
G1 X97.977 Y146.857 E52.81056
G1 X100.052 Y142.705 E53.24919
G1 X101.675 Y129.459 E54.5103
G1 X105.702 Y129.5 E54.89087
G1 X109.712 Y129.5 E55.26982
G1 X111.006 Y147.074 E56.93506
G1 X111.791 Y147.229 E57.01067
G1 X111.918 Y146.975 E57.03751
G1 X111.977 Y146.857 E57.04997
G1 X114.052 Y142.705 E57.48861
G1 X115.675 Y129.459 E58.74972
G1 X119.702 Y129.5 E59.13029
G1 X123.712 Y129.5 E59.50923
G1 X125.006 Y147.074 E61.17447
G0 F4500 X124.236 Y149.731
G0 X122.676 Y149.731
G0 X117.607 Y150.973
G0 X117.607 Y152.33
G0 X112.084 Y152.477
G1 F1800 X124.383 Y152.477 E62.01129
G1 X124.383 Y148.217 E62.41386
G1 X123.331 Y130.416 E64.09899
G1 X116.86 Y130.416 E64.7105
G1 X115.744 Y147.058 E66.2867
G1 X112.217 Y147.058 E66.62001
G1 X112.085 Y147.058 E66.63
G1 X112.085 Y147.229 E66.63958
G1 X112.084 Y152.477 E67.13552
G0 F4500 X110.236 Y149.819
G0 X109.352 Y149.819
G0 X103.174 Y148.866
G1 F1800 X108.529 Y148.875 E67.64157
G1 X108.529 Y150.826 E67.82594
G1 X99.579 Y150.826 E68.67171
G1 X99.579 Y148.876 E68.85599
G1 X102.634 Y148.876 E69.14468
G1 X103.103 Y148.762 E69.19029
G1 X103.174 Y148.69 E69.19985
G1 X103.174 Y148.762 E69.19986
G1 X103.174 Y148.866 E69.20802
G0 F4500 X103.607 Y150.973
G0 X103.607 Y152.33
G0 X98.084 Y152.477
G1 F1800 X110.383 Y152.477 E70.04485
G1 X110.383 Y148.217 E70.44742
G1 X109.331 Y130.416 E72.13255
G1 X102.86 Y130.416 E72.74406
G1 X101.744 Y147.058 E74.32026
G1 X98.217 Y147.058 E74.65356
G1 X98.085 Y147.058 E74.66355
G1 X98.085 Y147.229 E74.67314
G1 X98.084 Y152.477 E75.16907
G0 F4500 X96.236 Y149.819
G0 X95.352 Y149.819
G0 X89.171 Y148.86
G1 F1800 X90.154 Y148.876 E75.26198
G1 X94.529 Y148.876 E75.67542
G1 X94.529 Y150.826 E75.85969
G1 X85.579 Y150.826 E76.70547
G1 X85.579 Y148.876 E76.88974
G1 X88.634 Y148.876 E77.17844
G1 X89.103 Y148.762 E77.22405
G1 X89.172 Y148.692 E77.23334
G1 X89.172 Y148.762
G1 X89.171 Y148.86 E77.24094
G0 F4500 X89.607 Y150.973
G0 X89.607 Y152.33
G0 X84.084 Y152.477
G1 F1800 X96.383 Y152.477 E78.07777
G1 X96.383 Y148.217 E78.48034
G1 X95.331 Y130.416 E80.16547
G1 X88.86 Y130.416 E80.77698
G1 X87.744 Y147.058 E82.35318
G1 X84.214 Y147.058 E82.68676
G1 X84.085 Y147.058 E82.69612
G1 X84.084 Y152.477 E82.94631
G0 F4500 X84.232 Y147.205
G0 X86.138 Y147.205
G0 X86.13 Y148.729
G0 X88.617 Y148.74
G0 X89.461 Y147.906
G0 X90.636 Y133.938
G1 F1800 X90.636 Y137.346 E83.26837
G1 X90.64 Y147.813 E84.2575
G1 X89.803 Y147.818 E84.3366
G1 X89.802 Y147.819 E84.33673
G1 X89.616 Y147.819 E84.35431
G1 X89.627 Y147.633 E84.36553
G1 X90.288 Y137.337 E85.3405
G1 X90.505 Y133.936 E85.56182
G1 X90.515 Y133.784 E85.57622
G1 X90.547 Y133.311 E85.62102
G1 X90.577 Y133.167 E85.63492
G1 X90.638 Y132.874 E85.6632
G1 X90.711 Y132.523 E85.69708
G1 X90.848 Y132.917 E85.71199
G1 X90.919 Y133.208 E85.73492
G1 X90.972 Y133.425 E85.75603
G1 X91.011 Y133.836 E85.79505
G1 X90.783 Y133.898 E85.81738
G1 X90.636 Y133.938 E85.8281
G0 F4500 X90.789 Y147.968
G0 X89.473 Y147.967
G0 X89.469 Y148.717
G0 X94.676 Y149.731
G0 X96.236 Y149.731
G0 X97.711 Y147.066
G0 X100.138 Y147.205
G0 X100.13 Y148.729
G0 X102.617 Y148.74
G0 X103.461 Y147.906
G0 X104.636 Y133.938
G1 F1800 X104.636 Y137.345 E86.15006
G1 X104.64 Y147.813 E87.13928
G1 X103.803 Y147.817 E87.21838
G1 X103.801 Y147.817 E87.21857
G1 X103.616 Y147.817 E87.23605
G1 X103.626 Y147.632 E87.24722
G1 X103.627 Y147.631 E87.24735
G1 X104.288 Y137.336 E88.22224
G1 X104.505 Y133.936 E88.44349
