;FLAVOR:UltiGCode
;TIME:4038
;MATERIAL:9888
;MATERIAL2:0
;NOZZLE_DIAMETER:0.4
;MINX:73.41
;MINY:80.84
;MINZ:0.27
;MAXX:150.992
;MAXY:140.8
;MAXZ:23.27
;Generated with Cura_SteamEngine 4.8.0
M82 ;absolute extrusion mode
G0 F3000 Y50 ;avoid prime blob
G92 E0
G92 E0
G10
;LAYER_COUNT:116
;LAYER:0
M107
G0 F4560 X102.597 Y99.96 Z0.27
;TYPE:SKIRT
G11
G1 F2280 X102.649 Y100.126 E0.01644
G1 X102.791 Y100.851 E0.08625
G1 X102.858 Y101.802 E0.17635
G1 X102.859 Y109.531 E0.90674
G1 X102.819 Y110.269 E0.97658
G1 X102.7 Y110.998 E1.04638
G1 X102.502 Y111.709 E1.11613
G1 X102.229 Y112.396 E1.18599
G1 X101.883 Y113.048 E1.25574
G1 X101.469 Y113.66 E1.32556
G1 X100.86 Y114.358 E1.4131
G1 X100.757 Y114.461 E1.42687
G1 X100.207 Y114.954 E1.49667
G1 X99.757 Y115.277 E1.54901
G1 X99.581 Y115.72 E1.59406
G1 X99.314 Y116.223 E1.64787
G1 X105.115 Y116.242 E2.19607
G1 X105.6 Y116.137 E2.24296
G1 X106.335 Y116.059 E2.31281
G1 X107.073 Y116.061 E2.38255
G1 X107.807 Y116.143 E2.45235
G1 X108.528 Y116.304 E2.52216
G1 X108.723 Y116.373 E2.54171
G1 X109.437 Y116.434 E2.60943
G1 X110.162 Y116.576 E2.67924
G1 X110.867 Y116.796 E2.74903
G1 X111.545 Y117.09 E2.81887
G1 X112.186 Y117.456 E2.88862
G1 X112.229 Y117.487 E2.89363
G1 X112.399 Y117.362 E2.91357
G1 X113.038 Y116.991 E2.9834
G1 X113.713 Y116.692 E3.05316
G1 X114.417 Y116.467 E3.123
G1 X115.141 Y116.319 E3.19284
G1 X116.251 Y116.235 E3.29803
G1 X116.693 Y116.168 E3.34028
G1 X117.431 Y116.135 E3.41009
G1 X118.169 Y116.183 E3.47998
G1 X118.493 Y116.24 E3.51107
G1 X123.65 Y116.225 E3.9984
G1 X123.455 Y115.871 E4.0366
G1 X123.193 Y115.241 E4.10107
G1 X122.94 Y115.07 E4.12993
G1 X122.243 Y114.461 E4.2174
G1 X122.14 Y114.358 E4.23116
G1 X121.647 Y113.808 E4.30096
G1 X121.216 Y113.208 E4.37078
G1 X120.852 Y112.565 E4.4406
G1 X120.56 Y111.887 E4.51036
G1 X120.343 Y111.181 E4.58016
G1 X120.204 Y110.455 E4.65001
G1 X120.141 Y109.531 E4.73753
G1 X120.142 Y101.694 E5.47813
G1 X120.207 Y100.756 E5.56698
G1 X120.217 Y100.684 E5.57385
G1 X120.371 Y99.967 E5.64315
G1 X118.867 Y99.968 E5.78528
G1 X118.188 Y100.245 E5.85458
G1 X117.478 Y100.448 E5.92436
G1 X116.75 Y100.574 E5.99418
G1 X115.951 Y100.62 E6.06981
G1 X110.699 Y100.616 E6.56613
G1 X109.961 Y100.575 E6.63598
G1 X109.232 Y100.455 E6.70579
G1 X108.521 Y100.257 E6.77554
G1 X107.835 Y99.984 E6.84531
G1 X107.79 Y99.96 E6.85013
G1 X102.597 Y99.96 E7.34087
G0 F4560 X102.332 Y100.303
G1 F2280 X102.459 Y101.011 E7.40884
G1 X102.508 Y101.802 E7.48374
G1 X102.509 Y109.531 E8.21413
G1 X102.469 Y110.25 E8.28218
G1 X102.35 Y110.959 E8.35011
G1 X102.153 Y111.651 E8.41811
G1 X101.88 Y112.317 E8.48613
G1 X101.535 Y112.948 E8.55409
G1 X101.122 Y113.537 E8.62207
G1 X100.613 Y114.111 E8.69456
G1 X100.51 Y114.214 E8.70833
G1 X99.973 Y114.693 E8.77633
G1 X99.475 Y115.048 E8.83413
G1 X99.231 Y115.641 E8.89472
G1 X98.886 Y116.273 E8.96277
G1 X98.677 Y116.572 E8.99724
G1 X105.142 Y116.592 E9.60818
G1 X105.73 Y116.471 E9.66492
G1 X106.446 Y116.404 E9.73287
G1 X107.165 Y116.418 E9.80083
G1 X107.879 Y116.511 E9.86887
G1 X108.577 Y116.683 E9.93681
G1 X108.747 Y116.723 E9.95331
G1 X109.463 Y116.792 E10.02129
G1 X110.167 Y116.939 E10.08925
G1 X110.85 Y117.164 E10.15721
G1 X111.505 Y117.463 E10.22525
G1 X112.122 Y117.833 E10.29323
G1 X112.233 Y117.918 E10.30645
G1 X112.622 Y117.634 E10.35196
G1 X113.247 Y117.278 E10.41993
G1 X113.908 Y116.993 E10.48796
G1 X114.596 Y116.783 E10.55593
G1 X115.303 Y116.65 E10.62392
G1 X116.113 Y116.596 E10.70063
G1 X116.199 Y116.596 E10.70876
G1 X116.783 Y116.511 E10.76453
G1 X117.503 Y116.487 E10.83261
G1 X118.22 Y116.542 E10.90056
G1 X118.468 Y116.59 E10.92443
G1 X124.278 Y116.573 E11.47348
G1 X124.079 Y116.285 E11.50656
G1 X123.738 Y115.652 E11.57451
G1 X123.483 Y115.017 E11.63917
G1 X123.063 Y114.722 E11.68767
G1 X122.49 Y114.214 E11.76004
G1 X122.387 Y114.111 E11.7738
G1 X121.908 Y113.574 E11.84181
G1 X121.491 Y112.988 E11.90977
G1 X121.141 Y112.359 E11.9778
G1 X120.863 Y111.696 E12.04573
G1 X120.661 Y111.005 E12.11377
G1 X120.536 Y110.297 E12.18171
G1 X120.491 Y109.531 E12.25422
G1 X120.492 Y101.694 E12.99482
G1 X120.554 Y100.804 E13.07912
G1 X120.564 Y100.732 E13.08599
G1 X120.761 Y99.811 E13.175
G1 X120.818 Y99.616 E13.1942
G1 X118.767 Y99.618 E13.38801
G1 X118.552 Y99.727 E13.41079
G1 X117.878 Y99.978 E13.47876
G1 X117.18 Y100.153 E13.54676
G1 X116.467 Y100.25 E13.61476
G1 X115.951 Y100.27 E13.66356
G1 X110.699 Y100.266 E14.15987
G1 X109.981 Y100.225 E14.22784
G1 X109.271 Y100.106 E14.29587
G1 X108.58 Y99.908 E14.36379
G1 X107.914 Y99.634 E14.43185
G1 X107.87 Y99.61 E14.43659
G1 X102.125 Y99.61 E14.97949
G1 X102.332 Y100.303 E15.04784
G0 F4560 X102.013 Y100.478
G1 F2280 X102.125 Y101.168 E15.11389
G1 X102.158 Y101.802 E15.17389
G1 X102.159 Y109.531 E15.90428
G1 X102.119 Y110.23 E15.97044
G1 X102 Y110.919 E16.03652
G1 X101.803 Y111.591 E16.10269
G1 X101.53 Y112.235 E16.16879
G1 X101.186 Y112.844 E16.23489
G1 X100.775 Y113.41 E16.30099
G1 X100.365 Y113.863 E16.35873
G1 X100.262 Y113.966 E16.3725
G1 X99.74 Y114.432 E16.43862
G1 X99.18 Y114.826 E16.50333
G1 X99.154 Y114.915 E16.51209
G1 X98.882 Y115.56 E16.57824
G1 X98.538 Y116.169 E16.64434
G1 X98.126 Y116.735 E16.71049
G1 X97.958 Y116.92 E16.73411
G1 X105.165 Y116.942 E17.41517
G1 X105.857 Y116.806 E17.48182
G1 X106.555 Y116.751 E17.54798
G1 X107.254 Y116.777 E17.61409
G1 X107.946 Y116.881 E17.68021
G1 X108.621 Y117.064 E17.7463
G1 X108.79 Y117.075 E17.76231
G1 X109.486 Y117.15 E17.82846
G1 X110.169 Y117.303 E17.8946
G1 X110.829 Y117.533 E17.96065
G1 X111.46 Y117.837 E18.02684
G1 X112.051 Y118.21 E18.09288
G1 X112.233 Y118.357 E18.11499
G1 X112.277 Y118.317 E18.12061
G1 X112.845 Y117.907 E18.18681
G1 X113.455 Y117.565 E18.2529
G1 X114.1 Y117.295 E18.31898
G1 X114.773 Y117.1 E18.38519
G1 X115.462 Y116.983 E18.45123
G1 X116.114 Y116.946 E18.51295
G1 X116.211 Y116.946 E18.52211
G1 X116.872 Y116.854 E18.58518
G1 X117.571 Y116.839 E18.65125
G1 X118.268 Y116.903 E18.71739
G1 X118.425 Y116.94 E18.73264
G1 X124.989 Y116.921 E19.35294
G1 X124.74 Y116.632 E19.38899
G1 X124.347 Y116.054 E19.45504
G1 X124.023 Y115.434 E19.52114
G1 X123.778 Y114.8 E19.58538
G1 X123.756 Y114.787 E19.58779
G1 X123.19 Y114.375 E19.65395
G1 X122.738 Y113.966 E19.71155
G1 X122.635 Y113.863 E19.72532
G1 X122.169 Y113.341 E19.79144
G1 X121.766 Y112.769 E19.85757
G1 X121.431 Y112.155 E19.92366
G1 X121.168 Y111.506 E19.98984
G1 X120.981 Y110.832 E20.05594
G1 X120.871 Y110.141 E20.12206
G1 X120.841 Y109.531 E20.17977
G1 X120.842 Y101.694 E20.92037
G1 X120.9 Y100.852 E21.00013
G1 X120.91 Y100.78 E21.007
G1 X121.097 Y99.909 E21.09118
G1 X121.285 Y99.266 E21.15449
G1 X118.687 Y99.268 E21.4
G1 X118.235 Y99.48 E21.44718
G1 X117.572 Y99.703 E21.51328
G1 X116.887 Y99.849 E21.57947
G1 X115.951 Y99.92 E21.66817
G1 X110.699 Y99.916 E22.16449
G1 X110.001 Y99.875 E22.23056
G1 X109.311 Y99.756 E22.29673
G1 X108.64 Y99.558 E22.36284
G1 X107.996 Y99.285 E22.42894
G1 X107.952 Y99.26 E22.43373
G1 X102.115 Y99.26 E22.98532
G1 X101.587 Y99.23 E23.0353
G1 X101.823 Y99.804 E23.09395
G1 X102.013 Y100.478 E23.16012
G0 F4560 X101.517 Y99.993
G1 F2280 X101.692 Y100.65 E23.22437
G1 X101.788 Y101.322 E23.28852
G1 X101.808 Y101.802 E23.33392
G1 X101.809 Y109.531 E24.06431
G1 X101.769 Y110.209 E24.1285
G1 X101.65 Y110.878 E24.19271
G1 X101.453 Y111.529 E24.25698
G1 X101.181 Y112.151 E24.32114
G1 X100.838 Y112.738 E24.38538
G1 X100.428 Y113.279 E24.44953
G1 X100.015 Y113.719 E24.50656
G1 X99.507 Y114.17 E24.57075
G1 X98.949 Y114.558 E24.63498
G1 X98.884 Y114.593 E24.64196
G1 X98.805 Y114.853 E24.66763
G1 X98.533 Y115.476 E24.73187
G1 X98.189 Y116.062 E24.79609
G1 X97.779 Y116.604 E24.86031
G1 X97.338 Y117.07 E24.92094
G1 X97.114 Y117.268 E24.94919
G1 X105.227 Y117.292 E25.71588
G1 X105.315 Y117.265 E25.72457
G1 X105.983 Y117.143 E25.78874
G1 X106.661 Y117.1 E25.85294
G1 X107.339 Y117.137 E25.91711
G1 X108.009 Y117.254 E25.98138
G1 X108.636 Y117.428 E26.04287
G1 X108.832 Y117.428 E26.0614
G1 X109.507 Y117.508 E26.12563
G1 X110.167 Y117.667 E26.18978
G1 X110.805 Y117.903 E26.25407
G1 X111.41 Y118.211 E26.31822
G1 X111.975 Y118.589 E26.38246
G1 X112.245 Y118.82 E26.41604
G1 X112.513 Y118.576 E26.45029
G1 X113.066 Y118.181 E26.51451
G1 X113.662 Y117.854 E26.57875
G1 X114.291 Y117.6 E26.64286
G1 X114.947 Y117.42 E26.70714
G1 X115.619 Y117.319 E26.77136
G1 X116.247 Y117.295 E26.83075
G1 X116.285 Y117.286 E26.83444
G1 X116.959 Y117.199 E26.89866
G1 X117.638 Y117.192 E26.96283
G1 X118.314 Y117.264 E27.02707
G1 X118.42 Y117.29 E27.03739
G1 X125.827 Y117.269 E27.73735
G1 X125.435 Y116.905 E27.7879
G1 X124.994 Y116.388 E27.85212
G1 X124.618 Y115.823 E27.91625
G1 X124.31 Y115.217 E27.98049
G1 X124.075 Y114.58 E28.04466
G1 X123.863 Y114.438 E28.06877
G1 X123.321 Y114.028 E28.13299
G1 X122.882 Y113.616 E28.18988
G1 X122.431 Y113.108 E28.25408
G1 X122.043 Y112.55 E28.31831
G1 X121.722 Y111.951 E28.38253
G1 X121.474 Y111.319 E28.44668
G1 X121.302 Y110.661 E28.51095
G1 X121.209 Y109.988 E28.57516
G1 X121.191 Y109.531 E28.61838
G1 X121.192 Y101.694 E29.35897
G1 X121.247 Y100.901 E29.43409
G1 X121.257 Y100.829 E29.44096
G1 X121.433 Y100.007 E29.5204
G1 X121.751 Y98.915 E29.62788
G1 X118.612 Y98.918 E29.92452
G1 X118.545 Y98.957 E29.93184
G1 X117.921 Y99.226 E29.99606
G1 X117.269 Y99.419 E30.06031
G1 X116.6 Y99.534 E30.12446
G1 X115.952 Y99.57 E30.18579
G1 X110.7 Y99.566 E30.68211
G1 X110.021 Y99.526 E30.74638
G1 X109.353 Y99.406 E30.81052
G1 X108.703 Y99.208 E30.87473
G1 X108.08 Y98.936 E30.93897
G1 X108.036 Y98.91 E30.9438
G1 X102.115 Y98.91 E31.50334
G1 X101.437 Y98.87 E31.56752
G1 X101.007 Y98.88 E31.60816
G1 X101.267 Y99.362 E31.65992
G1 X101.517 Y99.993 E31.72406
G0 F4560 X101.21 Y100.18
G1 F2280 X101.368 Y100.819 E31.78626
G1 X101.448 Y101.473 E31.84852
G1 X101.458 Y101.802 E31.87963
G1 X101.459 Y109.531 E32.61002
G1 X101.419 Y110.189 E32.67232
G1 X101.3 Y110.836 E32.73448
G1 X101.103 Y111.465 E32.79677
G1 X100.832 Y112.064 E32.8589
G1 X100.489 Y112.627 E32.9212
G1 X99.87 Y113.368 E33.01244
G1 X99.767 Y113.471 E33.02621
G1 X99.274 Y113.908 E33.08846
G1 X98.732 Y114.281 E33.15064
G1 X98.591 Y114.354 E33.16564
G1 X98.455 Y114.789 E33.20871
G1 X98.183 Y115.389 E33.27097
G1 X97.841 Y115.952 E33.33322
G1 X97.433 Y116.469 E33.39546
G1 X97.092 Y116.821 E33.44177
G1 X96.597 Y117.255 E33.50398
G1 X96.13 Y117.575 E33.55748
G1 X96.13 Y117.615 E33.56126
G1 X105.284 Y117.642 E34.42631
G1 X105.457 Y117.591 E34.44336
G1 X106.106 Y117.481 E34.50556
G1 X106.764 Y117.451 E34.56781
G1 X107.42 Y117.5 E34.62997
G1 X108.066 Y117.629 E34.69223
G1 X108.609 Y117.779 E34.74546
G1 X108.872 Y117.782 E34.77032
G1 X109.525 Y117.868 E34.83256
G1 X110.162 Y118.032 E34.89472
G1 X110.775 Y118.273 E34.95696
G1 X111.354 Y118.586 E35.01916
G1 X111.891 Y118.968 E35.08144
G1 X112.261 Y119.278 E35.12705
G1 X112.749 Y118.836 E35.18927
G1 X113.287 Y118.456 E35.25152
G1 X113.867 Y118.145 E35.31371
G1 X114.481 Y117.906 E35.37597
G1 X115.119 Y117.743 E35.4382
G1 X115.772 Y117.658 E35.50043
G1 X116.295 Y117.645 E35.54987
G1 X116.39 Y117.622 E35.5591
G1 X117.044 Y117.544 E35.62135
G1 X117.702 Y117.546 E35.68353
G1 X118.356 Y117.627 E35.7458
G1 X118.407 Y117.64 E35.75078
G1 X126.889 Y117.616 E36.55233
G1 X126.252 Y117.176 E36.62549
G1 X126.156 Y117.097 E36.63724
G1 X125.674 Y116.648 E36.69949
G1 X125.249 Y116.145 E36.76172
G1 X124.889 Y115.594 E36.82391
G1 X124.599 Y115.003 E36.88613
G1 X124.382 Y114.381 E36.94838
G1 X124.37 Y114.331 E36.95324
G1 X123.973 Y114.09 E36.99713
G1 X123.233 Y113.471 E37.0883
G1 X123.13 Y113.368 E37.10206
G1 X122.693 Y112.875 E37.16432
G1 X122.32 Y112.333 E37.22649
G1 X122.015 Y111.749 E37.28876
G1 X121.783 Y111.133 E37.35096
G1 X121.627 Y110.493 E37.41321
G1 X121.541 Y109.531 E37.50448
G1 X121.542 Y101.694 E38.24508
G1 X121.594 Y100.949 E38.31565
G1 X121.604 Y100.877 E38.32252
G1 X121.769 Y100.105 E38.39712
G1 X122.218 Y98.565 E38.54871
G1 X118.511 Y98.569 E38.89902
G1 X118.223 Y98.723 E38.92989
G1 X117.61 Y98.962 E38.99206
G1 X116.971 Y99.124 E39.05436
G1 X116.318 Y99.208 E39.11657
G1 X115.952 Y99.22 E39.15118
G1 X110.7 Y99.216 E39.64749
G1 X110.043 Y99.176 E39.7097
G1 X109.395 Y99.056 E39.77197
G1 X108.767 Y98.858 E39.8342
G1 X108.167 Y98.586 E39.89645
G1 X108.124 Y98.56 E39.9012
G1 X102.115 Y98.56 E40.46905
G1 X101.458 Y98.52 E40.53125
G1 X101.37 Y98.503 E40.53972
G1 X100.662 Y98.56 E40.60685
G1 X100.373 Y98.56 E40.63416
G1 X100.667 Y98.983 E40.68284
G1 X100.975 Y99.565 E40.74506
G1 X101.21 Y100.18 E40.80728
G0 F4560 X100.9 Y100.365
G1 F2280 X101.042 Y100.986 E40.86748
G1 X101.108 Y101.802 E40.94484
G1 X101.109 Y109.531 E41.67523
G1 X101.069 Y110.167 E41.73545
G1 X100.95 Y110.793 E41.79567
G1 X100.753 Y111.398 E41.8558
G1 X100.482 Y111.975 E41.91604
G1 X100.141 Y112.513 E41.97623
G1 X99.623 Y113.121 E42.05171
G1 X99.52 Y113.224 E42.06548
G1 X99.042 Y113.645 E42.12567
G1 X98.515 Y114.003 E42.18588
G1 X98.302 Y114.117 E42.20871
G1 X98.105 Y114.723 E42.26892
G1 X97.834 Y115.299 E42.32908
G1 X97.493 Y115.837 E42.38927
G1 X96.959 Y116.46 E42.46681
G1 X96.846 Y116.572 E42.48185
G1 X96.366 Y116.992 E42.54212
G1 X95.838 Y117.347 E42.60225
G1 X95.78 Y117.376 E42.60837
G1 X95.78 Y117.964 E42.66394
G1 X105.336 Y117.993 E43.56699
G1 X105.597 Y117.918 E43.59265
G1 X106.227 Y117.821 E43.65288
G1 X106.863 Y117.803 E43.71301
G1 X107.497 Y117.865 E43.77321
G1 X108.118 Y118.007 E43.83341
G1 X108.566 Y118.129 E43.87729
G1 X108.91 Y118.135 E43.9098
G1 X109.54 Y118.228 E43.96998
G1 X110.153 Y118.399 E44.03012
G1 X110.741 Y118.645 E44.09035
G1 X111.293 Y118.963 E44.15055
G1 X111.8 Y119.347 E44.21066
G1 X112.193 Y119.73 E44.26251
G1 X112.511 Y119.522 E44.29842
G1 X112.984 Y119.096 E44.35858
G1 X113.506 Y118.732 E44.41872
G1 X114.071 Y118.437 E44.47895
G1 X114.667 Y118.214 E44.53908
G1 X115.287 Y118.068 E44.59928
G1 X116.118 Y117.996 E44.6781
G1 X116.494 Y117.959 E44.7138
G1 X117.127 Y117.89 E44.77398
G1 X117.764 Y117.901 E44.83418
G1 X118.38 Y117.99 E44.893
G1 X127.791 Y117.963 E45.78234
G1 X127.791 Y117.687 E45.80842
G1 X127.256 Y117.435 E45.86431
G1 X126.474 Y116.906 E45.95353
G1 X126.378 Y116.827 E45.96528
G1 X125.913 Y116.392 E46.02545
G1 X125.506 Y115.902 E46.08564
G1 X125.163 Y115.366 E46.14578
G1 X124.89 Y114.79 E46.20602
G1 X124.691 Y114.185 E46.2662
G1 X124.673 Y114.105 E46.27395
G1 X124.626 Y114.083 E46.27885
G1 X124.088 Y113.742 E46.33905
G1 X123.48 Y113.224 E46.41453
G1 X123.377 Y113.121 E46.42829
G1 X122.956 Y112.643 E46.48849
G1 X122.598 Y112.116 E46.54869
G1 X122.309 Y111.549 E46.60883
G1 X122.093 Y110.95 E46.66901
G1 X121.954 Y110.328 E46.72924
G1 X121.891 Y109.531 E46.80479
G1 X121.892 Y101.694 E47.54538
G1 X121.94 Y100.997 E47.61141
G1 X121.95 Y100.925 E47.61828
G1 X122.105 Y100.203 E47.68806
G1 X122.685 Y98.214 E47.88385
G1 X118.438 Y98.219 E48.28519
G1 X117.905 Y98.481 E48.34131
G1 X117.302 Y98.688 E48.40156
G1 X116.679 Y98.818 E48.4617
G1 X115.952 Y98.87 E48.53058
G1 X110.7 Y98.866 E49.02689
G1 X110.065 Y98.826 E49.08702
G1 X109.439 Y98.706 E49.14726
G1 X108.833 Y98.509 E49.20747
G1 X108.257 Y98.237 E49.26767
G1 X108.214 Y98.21 E49.27247
G1 X102.115 Y98.21 E49.84882
G1 X101.479 Y98.17 E49.90904
G1 X101.403 Y98.155 E49.91636
G1 X100.662 Y98.21 E49.98658
G1 X99.616 Y98.21 E50.08543
G1 X100.03 Y98.675 E50.14426
G1 X100.39 Y99.2 E50.20442
G1 X100.682 Y99.767 E50.26469
G1 X100.9 Y100.365 E50.32484
G0 F4560 X100.588 Y100.547
G1 F2280 X100.712 Y101.149 E50.38292
G1 X100.758 Y101.802 E50.44478
G1 X100.759 Y109.531 E51.17517
G1 X100.719 Y110.145 E51.23332
G1 X100.6 Y110.747 E51.29131
G1 X100.404 Y111.33 E51.34943
G1 X100.133 Y111.882 E51.40754
G1 X99.794 Y112.394 E51.46557
G1 X99.375 Y112.873 E51.52571
G1 X99.272 Y112.976 E51.53948
G1 X98.81 Y113.381 E51.59753
G1 X98.3 Y113.723 E51.65556
G1 X97.991 Y113.876 E51.68815
G1 X97.952 Y114.072 E51.70703
G1 X97.755 Y114.654 E51.7651
G1 X97.485 Y115.206 E51.82317
G1 X97.145 Y115.718 E51.88125
G1 X96.712 Y116.212 E51.94332
G1 X96.599 Y116.324 E51.95836
G1 X96.136 Y116.727 E52.01637
G1 X95.623 Y117.067 E52.07453
G1 X95.43 Y117.162 E52.09485
G1 X95.43 Y118.314 E52.20372
G1 X99.206 Y118.323 E52.56055
G1 X105.384 Y118.343 E53.14437
