;FLAVOR:UltiGCode
;TIME:283
;MATERIAL:505
;MATERIAL2:0
;NOZZLE_DIAMETER:0.4
;MINX:69.176
;MINY:92.343
;MINZ:0.27
;MAXX:89.292
;MAXY:134.543
;MAXZ:1.47
;Generated with Cura_SteamEngine 4.8.0
M82 ;absolute extrusion mode
G0 F3000 Y50 ;avoid prime blob
G92 E0
G92 E0
G10
;LAYER_COUNT:7
;LAYER:0
M107
;MESH:bestandteile-druck.stl
G0 F4500 X72.35 Y106.193 Z0.27
;TYPE:WALL-INNER
G11
G1 F1800 X72.654 Y106.193 E0.02873
G1 X72.741 Y106.193 E0.03695
G1 X73.276 Y106.193 E0.08751
G1 X73.4 Y106.193 E0.09923
G1 X73.401 Y105.304 E0.18324
G1 X87.281 Y106.192 E1.49758
G1 X87.434 Y106.202 E1.51207
G1 X87.905 Y106.234 E1.55668
G1 X88.047 Y106.263 E1.57037
G1 X88.353 Y106.326 E1.5999
G1 X88.696 Y106.398 E1.63302
G1 X88.311 Y106.531 E1.6473
G1 X88.007 Y106.605 E1.67104
G1 X87.789 Y106.659 E1.69227
G1 X87.381 Y106.698 E1.731
G1 X87.319 Y106.47 E1.75333
G1 X87.279 Y106.322 E1.76411
G1 X73.401 Y106.326 E3.07558
G1 X73.276 Y106.327 E3.08011
G1 X72.741 Y106.466 E3.111
G1 X72.682 Y106.529 E3.11833
G1 X72.425 Y106.808 E3.15418
G1 X72.35 Y107.021 E3.17551
G1 X72.35 Y108.546 E3.31963
G1 X72.366 Y108.568 E3.3222
G1 X72.376 Y108.581 E3.32375
G1 X72.35 Y108.581 E3.32415
G1 X72.35 Y110.218 E3.47884
G1 X70.4 Y110.218 E3.66312
G1 X70.4 Y101.268 E4.50889
G1 X72.35 Y101.268 E4.69317
G1 X72.35 Y106.193 E5.15858
G0 F4500 X72.502 Y108.529
G0 X73.284 Y108.85
G0 X87.239 Y109.164
G1 F1800 X87.306 Y109.004 E5.17497
G1 X87.401 Y108.781 E5.19788
G1 X87.824 Y108.835 E5.23818
G1 X88.027 Y108.896 E5.25821
G1 X88.702 Y109.097 E5.32476
G1 X88.011 Y109.233 E5.35901
G1 X88.01 Y109.234 E5.35914
G1 X87.938 Y109.249 E5.36609
G1 X87.452 Y109.283 E5.41213
G1 X87.279 Y109.294 E5.42426
G1 X87.248 Y109.296 E5.42719
G1 X73.401 Y110.182 E6.73841
G1 X73.4 Y109.159 E6.83508
G1 X87.239 Y109.164 E8.14287
G0 F4500 X73.265 Y109.01
G0 X72.502 Y108.529
G0 X72.425 Y105.868
G0 X72.675 Y105.868
;TYPE:WALL-OUTER
G1 F1800 X73.075 Y105.868 E8.18067
G1 X73.076 Y105.144 E8.24909
G1 X73.076 Y105.143 E8.24918
G1 X73.076 Y104.958 E8.26666
G1 X73.261 Y104.969 E8.27781
G1 X87.302 Y105.868 E9.6074
G1 X87.945 Y105.911 E9.6683
G1 X88.453 Y105.991 E9.7169
G1 X88.991 Y106.145 E9.76978
G1 X89.128 Y106.226 E9.78482
G1 X89.222 Y106.281 E9.79511
G1 X89.272 Y106.41 E9.80819
G1 X89.187 Y106.505 E9.82024
G1 X89.09 Y106.556 E9.83059
G1 X88.784 Y106.719 E9.86336
G1 X88.398 Y106.845 E9.90173
G1 X87.842 Y106.981 E9.95582
G1 X87.328 Y107.03 E10.00461
G1 X87.174 Y106.979 E10.01994
G1 X87.095 Y106.888 E10.03133
G1 X87.03 Y106.647 E10.05492
G1 X73.318 Y106.652 E11.3507
G1 X72.915 Y106.757 E11.39006
G1 X72.709 Y106.979 E11.41868
G1 X72.675 Y107.076 E11.42839
G1 X72.675 Y108.44 E11.55729
G1 X72.86 Y108.693 E11.58691
G1 X73.115 Y108.769 E11.61205
G1 X73.333 Y108.834 E11.63355
G1 X73.374 Y108.834 E11.63742
G1 X87.015 Y108.839 E12.9265
G1 X87.122 Y108.558 E12.95491
G1 X87.237 Y108.475 E12.96831
G1 X87.399 Y108.453 E12.98376
G1 X87.888 Y108.516 E13.03036
G1 X88.394 Y108.64 E13.07959
G1 X88.974 Y108.851 E13.13791
G1 X89.197 Y109.008 E13.16368
G1 X89.251 Y109.046 E13.16992
G1 X89.276 Y109.106 E13.17607
G1 X89.247 Y109.177 E13.18331
G1 X89.109 Y109.284 E13.19982
G1 X89.047 Y109.309 E13.20555
G1 X88.797 Y109.41 E13.23103
G1 X87.984 Y109.571 E13.30935
G1 X87.301 Y109.618 E13.37405
G1 X73.261 Y110.517 E14.70355
G1 X73.076 Y110.528 E14.72106
G1 X73.076 Y110.343 E14.73219
G1 X73.076 Y110.342 E14.73228
G1 X73.075 Y108.947 E14.86411
G1 X73.075 Y108.906
G1 X72.86 Y108.906 E14.87334
G1 X72.675 Y108.906 E14.8903
G1 X72.675 Y110.543 E15.045
G1 X70.075 Y110.543 E15.2907
G1 X70.075 Y100.943 E16.1979
G1 X72.675 Y100.943 E16.4436
G1 X72.675 Y105.868 E16.90901
G0 F4500 X72.875 Y105.868
G0 X72.217 Y106.533
;TYPE:SKIN
G1 F1800 X72.128 Y106.629 E16.92138
G1 X72.01 Y106.963 E16.95486
G1 X72.01 Y109.878 E17.23033
G1 X70.74 Y109.878 E17.35034
G1 X70.74 Y101.608 E18.13186
G1 X72.01 Y101.608 E18.25187
G1 X72.01 Y106.533 E18.71728
G1 X72.217 Y106.533 E18.73684
G0 F4500 X71.112 Y109.72
G1 F1800 X70.897 Y109.505 E18.76558
G0 F4500 X70.897 Y109.01
G1 F1800 X71.607 Y109.72 E18.86046
G0 F4500 X71.853 Y109.471
G1 F1800 X70.897 Y108.515 E18.98823
G0 F4500 X70.897 Y108.02
G1 F1800 X71.853 Y108.976 E19.11599
G0 F4500 X71.853 Y108.481
G1 F1800 X70.897 Y107.525 E19.24375
G0 F4500 X70.897 Y107.03
G1 F1800 X71.853 Y107.986 E19.37152
G0 F4500 X71.853 Y107.491
G1 F1800 X70.897 Y106.535 E19.49928
G0 F4500 X70.897 Y106.04
G1 F1800 X71.853 Y106.996 E19.62704
G0 F4500 X71.853 Y106.501
G1 F1800 X70.897 Y105.545 E19.75481
G0 F4500 X70.897 Y105.05
G1 F1800 X71.853 Y106.006 E19.88257
G0 F4500 X71.853 Y105.511
G1 F1800 X70.897 Y104.555 E20.01033
G0 F4500 X70.897 Y104.06
G1 F1800 X71.853 Y105.016 E20.13809
G0 F4500 X71.853 Y104.521
G1 F1800 X70.897 Y103.565 E20.26586
G0 F4500 X70.897 Y103.07
G1 F1800 X71.853 Y104.026 E20.39362
G0 F4500 X71.853 Y103.531
G1 F1800 X70.897 Y102.575 E20.52138
G0 F4500 X70.897 Y102.08
G1 F1800 X71.853 Y103.036 E20.64915
G0 F4500 X71.853 Y102.541
G1 F1800 X71.075 Y101.763 E20.75312
G0 F4500 X71.57 Y101.763
G1 F1800 X71.853 Y102.046 E20.79094
G0 F4500 X72.497 Y106.046
G0 X73.253 Y106.046
G0 X73.741 Y105.667
G1 F1800 X78.71 Y105.985 E21.26147
G1 X73.74 Y105.987 E21.73114
G1 X73.741 Y105.667 E21.76138
G0 F4500 X78.886 Y105.862
;TYPE:SKIN
G1 F1800 X79.19 Y106.166 E21.78169
G0 F4500 X79.437 Y106.166
G1 F1800 X79.096 Y105.825 E21.80448
G0 F4500 X79.361 Y105.842
G1 F1800 X79.685 Y106.166 E21.82613
G0 F4500 X79.932 Y106.166
G1 F1800 X79.625 Y105.859 E21.84664
G0 F4500 X79.89 Y105.876
G1 F1800 X80.18 Y106.166 E21.86602
G0 F4500 X80.427 Y106.166
G1 F1800 X80.154 Y105.893 E21.88426
G0 F4500 X80.418 Y105.909
G1 F1800 X80.675 Y106.166 E21.90144
G0 F4500 X80.683 Y105.926
G1 F1800 X80.922 Y106.166 E21.91744
G0 F4500 X80.947 Y105.943
G1 F1800 X81.17 Y106.166 E21.93234
G0 F4500 X81.211 Y105.96
G1 F1800 X81.416 Y106.165 E21.94604
G0 F4500 X81.476 Y105.977
G1 F1800 X81.664 Y106.165 E21.9586
G0 F4500 X81.74 Y105.994
G1 F1800 X81.911 Y106.165 E21.97003
G0 F4500 X82.004 Y106.01
G1 F1800 X82.159 Y106.165 E21.98038
G0 F4500 X82.269 Y106.027
G1 F1800 X82.406 Y106.165 E21.98957
G0 F4500 X82.533 Y106.044
G1 F1800 X82.654 Y106.165 E21.99766
G0 F4500 X82.797 Y106.061
G1 F1800 X82.901 Y106.165 E22.00461
G0 F4500 X83.062 Y106.078
G1 F1800 X83.149 Y106.165 E22.01042
G0 F4500 X83.326 Y106.095
G1 F1800 X83.396 Y106.165 E22.0151
G0 F4500 X83.59 Y106.111
G1 F1800 X83.644 Y106.165 E22.01871
G0 F4500 X78.942 Y106.166
G1 F1800 X78.877 Y106.101 E22.02305
G0 F4500 X73.295 Y106.463
G0 X72.544 Y106.88
G0 X72.502 Y108.529
G0 X73.284 Y108.85
G0 X78.709 Y109.501
;TYPE:SKIN
G1 F1800 X73.741 Y109.819 E22.49349
G1 X73.74 Y109.499 E22.52373
G1 X78.709 Y109.501 E22.9933
G0 F4500 X78.883 Y109.571
;TYPE:SKIN
G1 F1800 X78.977 Y109.665 E22.99958
G0 F4500 X79.21 Y109.651
G1 F1800 X78.877 Y109.318 E23.02183
G0 F4500 X79.124 Y109.318
G1 F1800 X79.442 Y109.636 E23.04308
G0 F4500 X79.675 Y109.621
G1 F1800 X79.372 Y109.318 E23.06333
G0 F4500 X79.619 Y109.318
G1 F1800 X79.908 Y109.606 E23.0826
G0 F4500 X80.14 Y109.591
G1 F1800 X79.867 Y109.318 E23.10085
G0 F4500 X80.114 Y109.318
G1 F1800 X80.373 Y109.576 E23.11812
G0 F4500 X80.605 Y109.561
G1 F1800 X80.361 Y109.318 E23.13439
G0 F4500 X80.61 Y109.318
G1 F1800 X80.838 Y109.547 E23.14966
G0 F4500 X80.857 Y109.318
G1 F1800 X81.071 Y109.532 E23.16396
G0 F4500 X81.105 Y109.318
G1 F1800 X81.303 Y109.517 E23.17722
G0 F4500 X81.352 Y109.318
G1 F1800 X81.536 Y109.502 E23.18952
G0 F4500 X81.6 Y109.318
G1 F1800 X81.769 Y109.487 E23.20081
G0 F4500 X81.847 Y109.318
G1 F1800 X82.001 Y109.472 E23.2111
G0 F4500 X82.095 Y109.318
G1 F1800 X82.234 Y109.458 E23.22042
G0 F4500 X82.343 Y109.319
G1 F1800 X82.467 Y109.443 E23.22871
G0 F4500 X82.59 Y109.319
G1 F1800 X82.699 Y109.428 E23.23599
G0 F4500 X82.838 Y109.319
G1 F1800 X82.932 Y109.413 E23.24228
G0 F4500 X83.085 Y109.319
G1 F1800 X83.164 Y109.398 E23.24755
G0 F4500 X83.333 Y109.319
G1 F1800 X83.397 Y109.383 E23.25183
G0 F4500 X83.58 Y109.319
G1 F1800 X83.63 Y109.368 E23.25514
G0 F4500 X83.828 Y109.319
G1 F1800 X83.862 Y109.354 E23.25744
G0 F4500 X83.863 Y109.336
G10
G0 X73.265 Y109.01
G0 X72.502 Y108.529
G0 X72.486 Y107.044
G0 X73.247 Y106.476
G0 X73.239 Y105.132
G0 X73.535 Y104.126
G0 X73.698 Y97.995
G0 X73.763 Y96.957
G0 X72.088 Y96.564
;TYPE:WALL-INNER
G11
G1 F1800 X85.967 Y96.559 E24.56901
G1 X85.966 Y97.582 E24.66568
G1 X72.086 Y96.694 E25.98003
G1 X71.934 Y96.684 E25.99442
G1 X71.462 Y96.652 E26.03913
G1 X71.32 Y96.623 E26.05282
G1 X71.014 Y96.56 E26.08235
G1 X70.671 Y96.488 E26.11547
G1 X71.056 Y96.355 E26.12974
G1 X71.36 Y96.281 E26.15349
G1 X71.578 Y96.227 E26.17471
G1 X71.987 Y96.189 E26.21353
G1 X72.049 Y96.417 E26.23586
G1 X72.088 Y96.564 E26.24656
G0 F4500 X86.144 Y96.41
G0 X86.867 Y95.884
G0 X86.88 Y94.386
G0 X86.169 Y93.896
G0 X72.128 Y93.722
G1 F1800 X72.06 Y93.882 E26.26299
G1 X71.965 Y94.105 E26.2859
G1 X71.543 Y94.051 E26.3261
G1 X71.34 Y93.99 E26.34613
G1 X70.668 Y93.789 E26.41241
G1 X71.356 Y93.652 E26.44653
G1 X71.429 Y93.637 E26.45357
G1 X71.915 Y93.603 E26.49961
G1 X72.088 Y93.592 E26.51172
G1 X72.119 Y93.59 E26.51466
G1 X75.499 Y93.374 E26.83472
G1 X86.51 Y92.668 E27.8774
G1 X88.967 Y92.668 E28.10958
G1 X88.967 Y101.618 E28.95536
G1 X87.017 Y101.618 E29.13963
G1 X87.017 Y94.342 E29.82722
G1 X86.706 Y93.913 E29.87729
G1 X86.081 Y93.727 E29.93891
G1 X75.515 Y93.723 E30.9374
G1 X72.128 Y93.722 E31.15785
G0 F4500 X86.061 Y93.863
G0 X86.88 Y94.386
G0 X86.867 Y95.884
G0 X86.692 Y96.192
;TYPE:WALL-OUTER
G1 F1800 X86.657 Y96.192 E31.16116
G1 X86.458 Y96.192 E31.17996
G1 X86.292 Y96.192 E31.19565
G1 X86.292 Y96.234
G1 X86.292 Y96.301 E31.20198
G1 X86.291 Y97.742 E31.33816
G1 X86.291 Y97.743 E31.33825
G1 X86.291 Y97.928 E31.35573
G1 X86.106 Y97.917 E31.36688
G1 X72.065 Y97.018 E32.69647
G1 X71.422 Y96.975 E32.75737
G1 X70.914 Y96.895 E32.80597
G1 X70.379 Y96.742 E32.85855
G1 X70.241 Y96.66 E32.87372
G1 X70.146 Y96.604 E32.88414
G1 X70.095 Y96.476 E32.89716
G1 X70.179 Y96.381 E32.90915
G1 X70.277 Y96.33 E32.91959
G1 X70.583 Y96.167 E32.95235
G1 X70.969 Y96.041 E32.99072
G1 X71.525 Y95.905 E33.04481
G1 X72.038 Y95.857 E33.0935
G1 X72.194 Y95.908 E33.10901
G1 X72.272 Y95.998 E33.12027
G1 X72.337 Y96.239 E33.14386
G1 X86.009 Y96.234 E34.43586
G1 X86.076 Y96.234 E34.44134
G1 X86.286 Y96.174 E34.45464
G1 X86.458 Y96.124 E34.45742
G1 X86.531 Y96.045 E34.45916
G1 X86.657 Y95.908 E34.47076
G1 X86.692 Y95.812 E34.48041
G1 X86.692 Y94.447 E34.6094
G1 X86.508 Y94.193 E34.63904
G1 X86.034 Y94.052 E34.68578
G1 X72.352 Y94.047 E35.97872
G1 X72.245 Y94.328 E36.00714
G1 X72.129 Y94.411 E36.02062
G1 X71.968 Y94.433 E36.03597
G1 X71.478 Y94.37 E36.08266
G1 X70.973 Y94.246 E36.1318
G1 X70.388 Y94.033 E36.19063
G1 X70.231 Y93.93 E36.20838
G1 X70.142 Y93.872 E36.21842
G1 X70.099 Y93.741 E36.23145
G1 X70.193 Y93.644 E36.24421
G1 X70.291 Y93.601 E36.25432
G1 X70.576 Y93.475 E36.28377
G1 X71.383 Y93.315 E36.36152
G1 X72.066 Y93.268 E36.42621
G1 X86.505 Y92.343 E37.7935
G1 X89.292 Y92.343 E38.05687
G1 X89.292 Y101.943 E38.96407
G1 X86.692 Y101.943 E39.20977
G1 X86.692 Y96.192 E39.75324
G0 F4500 X86.657 Y96.192
G0 X86.492 Y96.192
G0 X86.492 Y96.092
G0 X85.627 Y96.899
;TYPE:SKIN
G1 F1800 X85.626 Y97.219 E39.78348
G1 X80.657 Y96.901 E40.25401
G1 X85.627 Y96.899 E40.72367
G0 F4500 X80.487 Y96.822
;TYPE:SKIN
G1 F1800 X80.383 Y96.718 E40.73062
G0 F4500 X80.136 Y96.718
G1 F1800 X80.48 Y97.061 E40.75358
G0 F4500 X80.226 Y97.056
G1 F1800 X79.888 Y96.718 E40.77616
G0 F4500 X79.641 Y96.718
G1 F1800 X79.962 Y97.039 E40.79761
G0 F4500 X79.698 Y97.022
G1 F1800 X79.393 Y96.718 E40.81796
G0 F4500 X79.146 Y96.718
G1 F1800 X79.433 Y97.005 E40.83714
G0 F4500 X79.169 Y96.988
G1 F1800 X78.898 Y96.718 E40.85521
G0 F4500 X78.652 Y96.718
G1 F1800 X78.904 Y96.971 E40.87208
G0 F4500 X78.64 Y96.954
G1 F1800 X78.404 Y96.718 E40.88785
G0 F4500 X78.376 Y96.937
G1 F1800 X78.157 Y96.718 E40.90249
G0 F4500 X78.111 Y96.921
G1 F1800 X77.909 Y96.718 E40.91602
G0 F4500 X77.847 Y96.904
G1 F1800 X77.662 Y96.718 E40.92841
G0 F4500 X77.583 Y96.887
G1 F1800 X77.414 Y96.718 E40.93971
G0 F4500 X77.318 Y96.87
G1 F1800 X77.167 Y96.718 E40.94983
G0 F4500 X77.054 Y96.853
G1 F1800 X76.92 Y96.719 E40.95878
G0 F4500 X76.789 Y96.836
G1 F1800 X76.673 Y96.719 E40.96657
G0 F4500 X76.525 Y96.819
G1 F1800 X76.425 Y96.719 E40.97325
G0 F4500 X76.261 Y96.802
G1 F1800 X76.178 Y96.719 E40.9788
G0 F4500 X75.997 Y96.785
G1 F1800 X75.93 Y96.719 E40.98324
G0 F4500 X75.732 Y96.768
G1 F1800 X75.683 Y96.719 E40.98652
G0 F4500 X83.309 Y96.41
G0 X86.144 Y96.41
G0 X86.867 Y95.884
G0 X86.88 Y94.386
G0 X86.169 Y93.896
G0 X80.647 Y93.385
;TYPE:SKIN
G1 F1800 X86.533 Y93.008 E41.54388
G1 X88.627 Y93.008 E41.74177
G1 X88.627 Y101.278 E42.52328
G1 X87.357 Y101.278 E42.6433
G1 X87.357 Y94.232 E43.30914
G1 X86.914 Y93.62 E43.38054
G1 X86.131 Y93.387 E43.45774
G1 X80.647 Y93.385 E43.97598
G0 F4500 X88.47 Y93.42
G1 F1800 X88.214 Y93.164 E44.01019
G0 F4500 X87.719 Y93.164
G1 F1800 X88.47 Y93.915 E44.11056
G0 F4500 X88.47 Y94.41
G1 F1800 X87.224 Y93.164 E44.27707
G0 F4500 X86.729 Y93.164
G1 F1800 X88.47 Y94.905 E44.50975
G0 F4500 X88.47 Y95.4
G1 F1800 X87.514 Y94.444 E44.63751
G0 F4500 X87.514 Y94.938
G1 F1800 X88.47 Y95.894 E44.76527
G0 F4500 X88.47 Y96.389
G1 F1800 X87.514 Y95.433 E44.89304
G0 F4500 X87.514 Y95.928
G1 F1800 X88.47 Y96.884 E45.0208
G0 F4500 X88.47 Y97.379
G1 F1800 X87.514 Y96.423 E45.14856
G0 F4500 X87.514 Y96.918
G1 F1800 X88.47 Y97.874 E45.27632
G0 F4500 X88.47 Y98.369
G1 F1800 X87.514 Y97.413 E45.40409
G0 F4500 X87.514 Y97.908
G1 F1800 X88.47 Y98.864 E45.53185
G0 F4500 X88.47 Y99.359
G1 F1800 X87.514 Y98.403 E45.65961
G0 F4500 X87.514 Y98.898
G1 F1800 X88.47 Y99.854 E45.78738
G0 F4500 X88.47 Y100.349
G1 F1800 X87.514 Y99.393 E45.91514
G0 F4500 X87.514 Y99.888
G1 F1800 X88.47 Y100.844 E46.0429
G0 F4500 X88.251 Y101.12
G1 F1800 X87.514 Y100.383 E46.1414
G0 F4500 X87.514 Y100.878
G1 F1800 X87.756 Y101.12 E46.17374
G0 F4500 X86.88 Y94.386
G0 X86.36 Y93.29
G1 F1800 X86.253 Y93.183 E46.18804
G0 F4500 X80.473 Y93.343
;TYPE:SKIN
G1 F1800 X80.35 Y93.22 E46.19626
G0 F4500 X80.118 Y93.234
G1 F1800 X80.449 Y93.566 E46.21841
G0 F4500 X80.202 Y93.566
G1 F1800 X79.885 Y93.249 E46.23959
G0 F4500 X79.652 Y93.264
G1 F1800 X79.954 Y93.566 E46.25977
G0 F4500 X79.707 Y93.566
G1 F1800 X79.42 Y93.279 E46.27895
G0 F4500 X79.187 Y93.294
G1 F1800 X79.459 Y93.566 E46.29712
G0 F4500 X79.212 Y93.566
G1 F1800 X78.954 Y93.309 E46.31433
G0 F4500 X78.722 Y93.324
G1 F1800 X78.964 Y93.566 E46.3305
G0 F4500 X78.716 Y93.565
G1 F1800 X78.49 Y93.339 E46.3456
G0 F4500 X78.469 Y93.565
G1 F1800 X78.257 Y93.354 E46.35974
G0 F4500 X78.221 Y93.565
G1 F1800 X78.024 Y93.369 E46.37287
G0 F4500 X77.974 Y93.565
G1 F1800 X77.792 Y93.384 E46.385
G0 F4500 X77.726 Y93.565
G1 F1800 X77.559 Y93.398 E46.39615
G0 F4500 X77.479 Y93.565
G1 F1800 X77.327 Y93.413 E46.40631
G0 F4500 X77.231 Y93.565
G1 F1800 X77.094 Y93.428 E46.41547
G0 F4500 X76.983 Y93.565
G1 F1800 X76.861 Y93.443 E46.42362
G0 F4500 X76.735 Y93.565
G1 F1800 X76.629 Y93.458 E46.43073
G0 F4500 X76.488 Y93.565
G1 F1800 X76.396 Y93.473 E46.43688
G0 F4500 X76.24 Y93.565
G1 F1800 X76.163 Y93.488 E46.44203
G0 F4500 X75.993 Y93.565
G1 F1800 X75.931 Y93.502 E46.4462
G0 F4500 X75.745 Y93.565
G1 F1800 X75.698 Y93.517 E46.44938
G0 F4500 X75.697 Y93.537
G10
G0 X86.061 Y93.863
G0 X86.88 Y94.386
G0 X86.867 Y95.884
G0 X86.125 Y96.25
G0 X82.645 Y96.412
G0 X73.459 Y96.938
G0 X73.394 Y97.976
G0 X69.716 Y100.076
G0 X69.208 Y100.584
G0 X69.208 Y110.902
G0 X74.695 Y116.227
G0 X74.76 Y117.247
G0 X72.128 Y117.722
;TYPE:WALL-INNER
G11
G1 F1800 X72.06 Y117.882 E46.46581
G1 X71.965 Y118.105 E46.48871
G1 X71.543 Y118.051 E46.52892
G1 X71.34 Y117.99 E46.54895
G1 X70.668 Y117.789 E46.61523
G1 X71.356 Y117.652 E46.64935
G1 X71.429 Y117.637 E46.65639
G1 X71.915 Y117.603 E46.70243
G1 X72.088 Y117.592 E46.71454
G1 X72.119 Y117.59 E46.71748
G1 X75.499 Y117.374 E47.03754
G1 X86.51 Y116.668 E48.08021
G1 X88.967 Y116.668 E48.3124
G1 X88.967 Y125.618 E49.15818
G1 X87.017 Y125.618 E49.34245
G1 X87.017 Y118.342 E50.03003
G1 X86.706 Y117.913 E50.08011
G1 X86.081 Y117.727 E50.14173
G1 X75.515 Y117.723 E51.14022
