;FLAVOR:UltiGCode
;TIME:3266
;MATERIAL:8597
;MATERIAL2:0
;NOZZLE_DIAMETER:0.4
;MINX:91.696
;MINY:82.791
;MINZ:0.27
;MAXX:131.305
;MAXY:163.277
;MAXZ:23.87
;Generated with Cura_SteamEngine 4.8.0
M82 ;absolute extrusion mode
G0 F3000 Y50 ;avoid prime blob
G92 E0
G92 E0
G10
;LAYER_COUNT:119
;LAYER:0
M107
;MESH:frame-hardware.stl
G0 F4500 X117.38 Y91.596 Z0.27
;TYPE:WALL-INNER
G11
G1 F2400 X116.938 Y90.937 E0.07499
G1 X116.279 Y90.496 E0.14992
G1 X115.552 Y90.35 E0.21999
G1 X107.448 Y90.35 E0.98582
G1 X106.721 Y90.496 E1.05589
G1 X106.061 Y90.937 E1.13091
G1 X105.62 Y91.596 E1.20584
G1 X105.475 Y92.323 E1.27589
G1 X105.475 Y109.427 E2.89222
G1 X105.62 Y110.154 E2.96228
G1 X106.061 Y110.814 E3.03729
G1 X106.721 Y111.255 E3.1123
G1 X107.448 Y111.4 E3.18235
G1 X115.552 Y111.4 E3.94818
G1 X116.279 Y111.255 E4.01824
G1 X116.938 Y110.814 E4.09317
G1 X117.379 Y110.154 E4.16818
G1 X117.525 Y109.427 E4.23826
G1 X117.525 Y92.323 E5.85458
G1 X117.38 Y91.596 E5.92464
G0 F4500 X117.472 Y91.558
G0 X122.622 Y90.204
G0 X122.705 Y90.258
G1 F2400 X122.705 Y114.285 E8.19519
G1 X125.581 Y116.565 E8.54202
G1 X125.581 Y122.033 E9.05874
G1 X122.705 Y124.691 E9.42882
G1 X122.705 Y140.221 E10.8964
G1 X125.581 Y141.977 E11.21484
G1 X125.581 Y147.433 E11.73043
G1 X122.705 Y150.615 E12.13575
G1 X122.705 Y154.898 E12.5405
G1 X123.354 Y162.763 E13.28627
G1 X123.369 Y162.952 E13.30418
G1 X123.18 Y162.952 E13.31548
G1 X123.179 Y162.952 E13.31557
G1 X99.821 Y162.951 E15.5229
G1 X99.82 Y162.951 E15.523
G1 X99.632 Y162.951 E15.54076
G1 X99.647 Y162.763 E15.55204
G1 X100.089 Y157.377 E16.06273
G1 X100.14 Y156.782 E16.11917
G1 X100.294 Y154.897 E16.29789
G1 X100.294 Y150.615 E16.70254
G1 X97.418 Y147.433 E17.10786
G1 X97.418 Y141.976 E17.62355
G1 X100.294 Y140.221 E17.94194
G1 X100.294 Y124.692 E19.40943
G1 X97.418 Y122.032 E19.77963
G1 X97.418 Y116.565 E20.29626
G1 X100.294 Y114.285 E20.64309
G1 X100.294 Y90.258 E22.91364
G1 X92.439 Y86.879 E23.72171
G1 X92.439 Y84.009 E23.99292
G1 X130.561 Y84.009 E27.59545
G1 X130.561 Y86.879 E27.86666
G1 X122.705 Y90.258 E28.67482
G0 F4500 X122.622 Y90.204
G0 X117.563 Y133.43
G0 X117.415 Y134.169
G0 X117.011 Y134.774
G0 X116.317 Y135.347
G0 X116.279 Y135.255
G1 F2400 X116.938 Y134.814 E28.74975
G1 X117.379 Y134.154 E28.82476
G1 X117.524 Y133.427 E28.89482
G1 X117.525 Y116.323 E30.51114
G1 X117.379 Y115.596 E30.58122
G1 X116.938 Y114.937 E30.65615
G1 X116.279 Y114.496 E30.73108
G1 X115.552 Y114.35 E30.80116
G1 X107.438 Y114.35 E31.56793
G1 X106.655 Y114.538 E31.64403
G1 X106.061 Y114.937 E31.71165
G1 X105.62 Y115.596 E31.78658
G1 X105.475 Y116.323 E31.85664
G1 X105.474 Y133.427 E33.47296
G1 X105.62 Y134.154 E33.54304
G1 X106.061 Y134.814 E33.61805
G1 X106.72 Y135.255 E33.69298
G1 X107.447 Y135.4 E33.76304
G1 X115.551 Y135.4 E34.52886
G1 X116.279 Y135.255 E34.59901
G0 F4500 X116.317 Y135.347
G0 X106.705 Y138.46
G0 X106.033 Y138.909
G0 X105.584 Y139.581
G0 X105.435 Y140.32
G0 X105.435 Y157.43
G0 X105.584 Y158.169
G0 X105.988 Y158.774
G0 X106.682 Y159.347
G0 X106.72 Y159.255
G1 F2400 X107.447 Y159.4 E34.66907
G1 X115.551 Y159.4 E35.43489
G1 X116.278 Y159.255 E35.50495
G1 X116.938 Y158.814 E35.57996
G1 X117.379 Y158.154 E35.65497
G1 X117.524 Y157.427 E35.72503
G1 X117.524 Y140.323 E37.34136
G1 X117.379 Y139.596 E37.41141
G1 X116.938 Y138.937 E37.48634
G1 X116.278 Y138.496 E37.56136
G1 X115.551 Y138.35 E37.63143
G1 X107.447 Y138.35 E38.39726
G1 X106.72 Y138.496 E38.46733
G1 X106.061 Y138.937 E38.54226
G1 X105.62 Y139.596 E38.6172
G1 X105.474 Y140.323 E38.68727
G1 X105.474 Y157.427 E40.3036
G1 X105.62 Y158.154 E40.37367
G1 X106.061 Y158.814 E40.44868
G1 X106.72 Y159.255 E40.52362
G0 F4500 X106.682 Y159.347
G0 X107.444 Y159.439
G0 X115.554 Y159.439
G0 X117.056 Y158.816
G0 X116.704 Y158.58
;TYPE:WALL-OUTER
G1 F2400 X117.073 Y158.027 E40.58644
G1 X117.199 Y157.395 E40.64734
G1 X117.199 Y140.355 E42.25762
G1 X117.073 Y139.723 E42.31852
G1 X116.704 Y139.171 E42.38126
G1 X116.151 Y138.802 E42.44409
G1 X115.519 Y138.675 E42.50501
G1 X107.479 Y138.675 E43.26479
G1 X106.847 Y138.802 E43.32571
G1 X106.295 Y139.171 E43.38845
G1 X105.926 Y139.723 E43.4512
G1 X105.799 Y140.355 E43.51211
G1 X105.799 Y157.395 E45.12239
G1 X105.926 Y158.027 E45.18331
G1 X106.295 Y158.58 E45.24614
G1 X106.847 Y158.949 E45.30888
G1 X107.479 Y159.075 E45.36978
G1 X115.519 Y159.075 E46.12956
G1 X116.151 Y158.949 E46.19046
G1 X116.704 Y158.58 E46.25329
G0 F4500 X116.815 Y158.414
G0 X117.167 Y158.65
G0 X117.563 Y157.43
G0 X117.563 Y140.32
G0 X117.415 Y139.581
G0 X116.966 Y138.909
G0 X116.293 Y138.46
G0 X115.554 Y138.311
G0 X111.069 Y138.311
G0 X106.059 Y134.932
G0 X106.295 Y134.58
G1 F2400 X106.847 Y134.949 E46.31603
G1 X107.479 Y135.075 E46.37693
G1 X115.519 Y135.075 E47.13671
G1 X116.152 Y134.949 E47.1977
G1 X116.704 Y134.58 E47.26045
G1 X117.073 Y134.027 E47.32327
G1 X117.199 Y133.395 E47.38417
G1 X117.2 Y116.355 E48.99445
G1 X117.073 Y115.723 E49.05537
G1 X116.704 Y115.171 E49.11812
G1 X116.152 Y114.802 E49.18086
G1 X115.52 Y114.675 E49.24178
G1 X107.476 Y114.675 E50.00194
G1 X106.788 Y114.84 E50.0688
G1 X106.295 Y115.171 E50.12491
G1 X105.926 Y115.723 E50.18766
G1 X105.8 Y116.355 E50.24856
G1 X105.799 Y133.395 E51.85884
G1 X105.926 Y134.027 E51.91976
G1 X106.295 Y134.58 E51.98258
G0 F4500 X106.461 Y134.691
G0 X106.225 Y135.043
G0 X105.584 Y134.169
G0 X105.435 Y133.43
G0 X105.436 Y116.32
G0 X106.059 Y110.932
G0 X106.295 Y110.58
G1 F2400 X106.848 Y110.949 E52.0454
G1 X107.48 Y111.075 E52.1063
G1 X115.52 Y111.075 E52.86608
G1 X116.152 Y110.949 E52.92698
G1 X116.704 Y110.58 E52.98973
G1 X117.073 Y110.027 E53.05255
G1 X117.2 Y109.395 E53.11347
G1 X117.2 Y92.355 E54.72375
G1 X117.074 Y91.723 E54.78465
G1 X116.704 Y91.171 E54.84745
G1 X116.152 Y90.802 E54.91019
G1 X115.52 Y90.675 E54.97111
G1 X107.48 Y90.675 E55.73089
G1 X106.848 Y90.802 E55.79181
G1 X106.295 Y91.171 E55.85464
G1 X105.926 Y91.723 E55.91738
G1 X105.8 Y92.355 E55.97828
G1 X105.8 Y109.395 E57.58856
G1 X105.926 Y110.027 E57.64946
G1 X106.295 Y110.58 E57.71228
G0 F4500 X106.461 Y110.691
G0 X106.225 Y111.043
G0 X107.445 Y111.439
G0 X115.555 Y111.439
G0 X116.294 Y111.291
G0 X116.966 Y110.842
G0 X117.37 Y110.237
G0 X122.605 Y90.472
G0 X123.03 Y90.472
G1 F2400 X123.03 Y114.128 E59.94778
G1 X125.906 Y116.408 E60.2946
G1 X125.906 Y122.176 E60.83968
G1 X123.03 Y124.833 E61.20969
G1 X123.03 Y140.039 E62.64666
G1 X125.906 Y141.795 E62.9651
G1 X125.906 Y147.558 E63.5097
G1 X123.03 Y150.74 E63.91502
G1 X123.03 Y154.885 E64.30672
G1 X123.707 Y163.088 E65.08454
G1 X123.722 Y163.277 E65.10246
G1 X123.533 Y163.277 E65.11375
G1 X123.532 Y163.277 E65.11385
G1 X99.468 Y163.276 E67.38789
G1 X99.467 Y163.276 E67.38799
G1 X99.279 Y163.276 E67.40575
G1 X99.294 Y163.088 E67.41704
G1 X99.765 Y157.349 E67.96119
G1 X99.816 Y156.755 E68.01753
G1 X99.969 Y154.884 E68.19493
G1 X99.969 Y150.74 E68.58654
G1 X97.093 Y147.558 E68.99186
G1 X97.093 Y141.794 E69.53656
G1 X99.969 Y140.039 E69.85495
G1 X99.969 Y124.834 E71.29182
G1 X97.093 Y122.175 E71.66196
G1 X97.093 Y116.408 E72.20694
G1 X99.969 Y114.128 E72.55377
G1 X99.969 Y90.472 E74.78926
G1 X92.114 Y87.093 E75.59733
G1 X92.114 Y83.684 E75.91948
G1 X130.886 Y83.684 E79.58343
G1 X130.886 Y87.093 E79.90558
G1 X123.03 Y90.472 E80.71373
G0 F4500 X123.03 Y90.672
G0 X122.365 Y90.034
;TYPE:SKIN
G1 F2400 X122.365 Y114.45 E83.02105
G1 X125.241 Y116.73 E83.36787
G1 X125.241 Y121.884 E83.85492
G1 X122.365 Y124.542 E84.225
G1 X122.365 Y140.412 E85.72472
G1 X125.241 Y142.168 E86.04315
G1 X125.241 Y147.303 E86.52841
G1 X122.365 Y150.484 E86.93366
G1 X122.365 Y154.912 E87.35211
G1 X123 Y162.612 E88.08223
G1 X100 Y162.611 E90.25573
G1 X100.427 Y157.404 E90.74944
G1 X100.478 Y156.809 E90.80588
G1 X100.634 Y154.911 E90.98584
G1 X100.634 Y150.484 E91.40419
G1 X97.758 Y147.303 E91.80944
G1 X97.758 Y142.167 E92.2948
G1 X100.634 Y140.412 E92.61318
G1 X100.634 Y124.543 E94.1128
G1 X97.758 Y121.884 E94.48295
G1 X97.758 Y116.73 E94.97
G1 X100.634 Y114.45 E95.31683
G1 X100.634 Y90.034 E97.62414
G1 X92.779 Y86.655 E98.4322
G1 X92.779 Y84.349 E98.65012
G1 X130.221 Y84.349 E102.18839
G1 X130.221 Y86.655 E102.40631
G1 X122.365 Y90.034 E103.21446
G0 F4500 X117.7 Y91.463
G1 F2400 X117.183 Y90.692 E103.30218
G1 X116.412 Y90.176 E103.38985
G1 X115.585 Y90.01 E103.46956
G1 X107.415 Y90.01 E104.24163
G1 X106.588 Y90.176 E104.32134
G1 X105.816 Y90.692 E104.40909
G1 X105.3 Y91.464 E104.49684
G1 X105.135 Y92.29 E104.57644
G1 X105.135 Y109.46 E106.199
G1 X105.3 Y110.286 E106.2786
G1 X105.816 Y111.059 E106.36643
G1 X106.589 Y111.575 E106.45426
G1 X107.415 Y111.74 E106.53386
G1 X115.585 Y111.74 E107.30592
G1 X116.411 Y111.575 E107.38552
G1 X117.183 Y111.059 E107.47327
G1 X117.699 Y110.287 E107.56102
G1 X117.865 Y109.46 E107.64073
G1 X117.865 Y92.29 E109.26329
G1 X117.7 Y91.463 E109.34299
G0 F4500 X117.564 Y109.43
G0 X116.412 Y114.176
G1 F2400 X115.585 Y114.01 E109.4227
G1 X107.397 Y114.01 E110.19646
G1 X106.517 Y114.221 E110.28198
G1 X105.816 Y114.692 E110.36179
G1 X105.3 Y115.464 E110.44954
G1 X105.135 Y116.29 E110.52914
G1 X105.134 Y133.46 E112.1517
G1 X105.3 Y134.287 E112.23141
G1 X105.816 Y135.059 E112.31916
G1 X106.588 Y135.575 E112.40691
G1 X107.414 Y135.74 E112.48651
G1 X115.584 Y135.74 E113.25858
G1 X116.411 Y135.575 E113.33827
G1 X117.183 Y135.059 E113.42602
G1 X117.699 Y134.286 E113.51385
G1 X117.864 Y133.46 E113.59345
G1 X117.865 Y116.29 E115.21601
G1 X117.699 Y115.463 E115.29572
G1 X117.183 Y114.692 E115.38339
G1 X116.412 Y114.176 E115.47106
G0 F4500 X117.415 Y115.581
G0 X117.564 Y116.32
G0 X117.563 Y133.43
G0 X115.584 Y138.01
G1 F2400 X107.414 Y138.01 E116.24313
G1 X106.587 Y138.176 E116.32284
G1 X105.816 Y138.692 E116.41051
G1 X105.3 Y139.463 E116.49818
G1 X105.134 Y140.29 E116.57789
G1 X105.134 Y157.46 E118.20046
G1 X105.3 Y158.287 E118.28017
G1 X105.816 Y159.059 E118.36792
G1 X106.588 Y159.575 E118.45567
G1 X107.414 Y159.74 E118.53527
G1 X115.584 Y159.74 E119.30733
G1 X116.41 Y159.575 E119.38693
G1 X117.183 Y159.059 E119.47476
G1 X117.699 Y158.286 E119.56259
G1 X117.864 Y157.46 E119.64218
G1 X117.864 Y140.29 E121.26475
G1 X117.699 Y139.464 E121.34435
G1 X117.183 Y138.692 E121.4321
G1 X116.411 Y138.176 E121.51985
G1 X115.584 Y138.01 E121.59956
G0 F4500 X107.444 Y138.311
G0 X106.705 Y138.46
G0 X106.033 Y138.909
G0 X105.629 Y139.513
G0 X100.199 Y162.071
G1 F2400 X100.581 Y162.453 E121.65061
G0 F4500 X101.076 Y162.453
G1 F2400 X100.237 Y161.614 E121.76274
G0 F4500 X100.274 Y161.156
G1 F2400 X101.571 Y162.453 E121.93607
G0 F4500 X102.066 Y162.453
G1 F2400 X100.312 Y160.699 E122.17048
G0 F4500 X100.35 Y160.242
G1 F2400 X102.561 Y162.453 E122.46597
G0 F4500 X103.056 Y162.453
G1 F2400 X100.387 Y159.784 E122.82266
G0 F4500 X100.425 Y159.327
G1 F2400 X103.551 Y162.453 E123.24043
G0 F4500 X104.046 Y162.453
G1 F2400 X100.462 Y158.869 E123.71941
G0 F4500 X100.501 Y158.413
G1 F2400 X104.541 Y162.453 E124.25933
G0 F4500 X105.036 Y162.453
G1 F2400 X100.538 Y157.955 E124.86045
G0 F4500 X100.576 Y157.498
G1 F2400 X105.531 Y162.453 E125.52265
G0 F4500 X106.026 Y162.453
G1 F2400 X100.614 Y157.042 E126.24586
G0 F4500 X100.653 Y156.585
G1 F2400 X106.521 Y162.453 E127.03008
G0 F4500 X107.016 Y162.453
G1 F2400 X100.69 Y156.127 E127.87551
G0 F4500 X100.728 Y155.67
G1 F2400 X107.511 Y162.453 E128.78201
G0 F4500 X108.006 Y162.453
G1 F2400 X100.766 Y155.213 E129.74959
G0 F4500 X100.791 Y154.743
G1 F2400 X108.501 Y162.453 E130.77998
G0 F4500 X108.996 Y162.453
G1 F2400 X105.737 Y159.194 E131.21552
G0 F4500 X105.679 Y159.137
G1 F2400 X100.791 Y154.248 E131.86883
G0 F4500 X100.791 Y153.753
G1 F2400 X105.094 Y158.056 E132.4439
G0 F4500 X104.977 Y157.444
G1 F2400 X100.791 Y153.258 E133.00333
G0 F4500 X100.791 Y152.763
G1 F2400 X104.977 Y156.949 E133.56276
G0 F4500 X104.977 Y156.454
G1 F2400 X100.791 Y152.268 E134.12219
G0 F4500 X100.791 Y151.773
G1 F2400 X104.977 Y155.959 E134.68162
G0 F4500 X104.977 Y155.464
G1 F2400 X100.791 Y151.278 E135.24105
G0 F4500 X100.791 Y150.783
G1 F2400 X104.977 Y154.969 E135.80048
G0 F4500 X104.977 Y154.474
G1 F2400 X99.519 Y149.017 E136.52984
G1 X99.457 Y148.955
G0 F4500 X97.914 Y146.916
G1 F2400 X104.977 Y153.979 E137.47376
G0 F4500 X104.977 Y153.484
G1 F2400 X97.914 Y146.422 E138.41762
G0 F4500 X97.914 Y145.927
G1 F2400 X104.977 Y152.989 E139.36147
G0 F4500 X104.977 Y152.494
G1 F2400 X97.914 Y145.432 E140.30533
G0 F4500 X97.914 Y144.937
G1 F2400 X104.977 Y151.999 E141.24918
G0 F4500 X104.977 Y151.504
G1 F2400 X97.914 Y144.442 E142.19304
G0 F4500 X97.914 Y143.947
G1 F2400 X104.977 Y151.009 E143.13689
G0 F4500 X104.977 Y150.514
G1 F2400 X97.914 Y143.452 E144.08075
G0 F4500 X97.914 Y142.957
G1 F2400 X104.977 Y150.019 E145.0246
G0 F4500 X104.977 Y149.524
G1 F2400 X97.914 Y142.462 E145.96846
G0 F4500 X98.093 Y142.146
G1 F2400 X104.977 Y149.029 E146.88839
G0 F4500 X104.977 Y148.534
G1 F2400 X98.4 Y141.958 E147.76729
G0 F4500 X98.707 Y141.77
G1 F2400 X104.977 Y148.039 E148.60517
G0 F4500 X104.977 Y147.544
G1 F2400 X99.015 Y141.583 E149.40188
G0 F4500 X99.323 Y141.395
G1 F2400 X104.977 Y147.049 E150.1575
G0 F4500 X104.977 Y146.554
G1 F2400 X99.629 Y141.207 E150.87216
G0 F4500 X99.937 Y141.02
G1 F2400 X104.977 Y146.059 E151.54565
G0 F4500 X104.977 Y145.565
G1 F2400 X100.245 Y140.833 E152.17805
G0 F4500 X100.552 Y140.645
G1 F2400 X104.977 Y145.07 E152.76943
G0 F4500 X104.977 Y144.575
G1 F2400 X100.791 Y140.388 E153.32892
G0 F4500 X100.791 Y139.894
G1 F2400 X104.977 Y144.08 E153.88835
G0 F4500 X104.977 Y143.585
G1 F2400 X100.791 Y139.399 E154.44778
G0 F4500 X100.791 Y138.904
G1 F2400 X104.977 Y143.09 E155.00721
G0 F4500 X104.977 Y142.595
G1 F2400 X100.791 Y138.409 E155.56664
G0 F4500 X100.791 Y137.914
G1 F2400 X104.977 Y142.1 E156.12607
G0 F4500 X104.977 Y141.605
G1 F2400 X100.791 Y137.419 E156.6855
G0 F4500 X100.791 Y136.924
G1 F2400 X104.977 Y141.11 E157.24494
G0 F4500 X104.977 Y140.615
G1 F2400 X100.791 Y136.429 E157.80437
G0 F4500 X100.791 Y135.934
G1 F2400 X105.003 Y140.146 E158.36727
G0 F4500 X105.085 Y139.734
G1 F2400 X100.791 Y135.439 E158.9412
G0 F4500 X100.791 Y134.944
G1 F2400 X105.19 Y139.343 E159.5291
G0 F4500 X105.389 Y139.047
G1 F2400 X100.791 Y134.449 E160.14359
G0 F4500 X100.791 Y133.954
G1 F2400 X105.588 Y138.751 E160.78468
G0 F4500 X105.826 Y138.494
G1 F2400 X100.791 Y133.459 E161.45757
G0 F4500 X100.791 Y132.964
G1 F2400 X106.123 Y138.296 E162.17015
G0 F4500 X106.419 Y138.097
G1 F2400 X100.791 Y132.469 E162.9223
G0 F4500 X100.791 Y131.974
G1 F2400 X106.79 Y137.974 E163.72409
G0 F4500 X107.203 Y137.891
G1 F2400 X100.791 Y131.479 E164.58101
G0 F4500 X100.791 Y130.984
G1 F2400 X107.658 Y137.851 E165.49874
G0 F4500 X108.153 Y137.851
G1 F2400 X100.791 Y130.489 E166.48262
G0 F4500 X100.791 Y129.994
G1 F2400 X105.17 Y134.374 E167.06791
G0 F4500 X105.03 Y133.739
G1 F2400 X100.791 Y129.499 E167.63449
G0 F4500 X100.791 Y129.004
G1 F2400 X104.977 Y133.191 E168.19399
G0 F4500 X104.977 Y132.696
G1 F2400 X100.791 Y128.509 E168.75348
G0 F4500 X100.791 Y128.014
G1 F2400 X104.977 Y132.201 E169.31298
G0 F4500 X104.977 Y131.706
G1 F2400 X100.791 Y127.519 E169.87248
G0 F4500 X100.791 Y127.024
G1 F2400 X104.977 Y131.211 E170.43198
G0 F4500 X104.977 Y130.716
G1 F2400 X100.791 Y126.529 E170.99147
G0 F4500 X100.791 Y126.034
G1 F2400 X104.977 Y130.221 E171.55097
G0 F4500 X104.977 Y129.726
G1 F2400 X100.791 Y125.539 E172.11047
G0 F4500 X100.791 Y125.044
G1 F2400 X104.977 Y129.231 E172.66996
G0 F4500 X104.977 Y128.736
G1 F2400 X100.791 Y124.549 E173.22946
G1 X100.729 Y124.487
G0 F4500 X99.769 Y123.528
G1 F2400 X97.915 Y121.673 E173.4773
G0 F4500 X97.915 Y121.179
G1 F2400 X104.977 Y128.241 E174.42109
G0 F4500 X104.977 Y127.746
G1 F2400 X97.915 Y120.684 E175.36488
G0 F4500 X97.915 Y120.189
G1 F2400 X104.977 Y127.251 E176.30867
G0 F4500 X104.977 Y126.756
G1 F2400 X97.915 Y119.694 E177.25246
G0 F4500 X97.915 Y119.199
G1 F2400 X104.977 Y126.261 E178.19624
G0 F4500 X104.977 Y125.766
G1 F2400 X97.915 Y118.704 E179.14003
G0 F4500 X97.915 Y118.209
G1 F2400 X104.977 Y125.271 E180.08382
G0 F4500 X104.977 Y124.776
G1 F2400 X97.915 Y117.714 E181.02761
G0 F4500 X97.915 Y117.219
G1 F2400 X104.977 Y124.281 E181.9714
